hutaobo/pyXenium/manuscript/renal_immune_resistance_pilot/roi_scores.csv
region_x_bin,region_y_bin,immune_resistance__axis__checkpoint,immune_resistance__axis__myeloid,immune_resistance__axis__vascular,immune_resistance__axis__emt,immune_resistance__model__rna_only,immune_resistance__model__protein_only,immune_resistance__model__joint_activity,immune_resistance__model__discordance_burden,immune_resistance__model__checkpoint_only,immune_resistance__model__myeloid_only,immune_resistance__model__vascular_only,immune_resistance__model__emt_only,immune_resistance__model__joint_minus_checkpoint,immune_resistance__model__joint_minus_myeloid,immune_resistance__model__joint_minus_vascular,immune_resistance__model__joint_minus_emt,immune_resistance__model__myeloid_vascular_branch,immune_resistance__model__epithelial_emt_front_branch,immune_resistance__branch_target__myeloid_vascular,immune_resistance__branch_target__epithelial_emt_front,immune_resistance__held_out__myeloid_vascular,immune_resistance__held_out__epithelial_emt_front,n_cells,region_x_min,region_x_max,region_y_min,region_y_max,region_x_center,region_y_center
0,0,-0.08857374,-0.92216915,-0.20394579,-0.7684295,-0.45396495,-0.53759414,-0.4957795,0.6734962,-0.08857374,-0.92216915,-0.20394579,-0.7684295,-0.63151485,-0.35364968,-0.59305745,-0.40489623,-0.40489623,-0.59305745,0.21581396,0.05271318,0.18604651,0.37209302,43,1.490325927734375,479.4687563578288,3.2897114753723145,245.03384540478388,240.47954114278158,124.1617784400781
0,1,-0.08898523,-0.868884,-0.12246863,-0.712882,-0.43591404,-0.46069586,-0.44830495,0.6766878,-0.08898523,-0.868884,-0.12246863,-0.712882,-0.5680782,-0.30811194,-0.5569171,-0.36011264,-0.36011264,-0.5569171,0.20595388,0.027672956,0.13836478,0.20754717,159,1.490325927734375,479.4687563578288,245.03384540478388,486.77797933419544,240.47954114278158,365.90591236948967
0,2,0.0043633636,-0.5897415,0.024442542,-0.48559564,-0.31159157,-0.21167406,-0.2616328,0.63163316,0.0043633636,-0.5897415,0.024442542,-0.48559564,-0.3502982,-0.15226325,-0.35699126,-0.18697853,-0.18697853,-0.35699126,0.16641231,0.02692104,0.09538951,0.18600954,629,1.490325927734375,479.4687563578288,486.77797933419544,728.522113263607,240.47954114278158,607.6500462989012
0,3,-0.05563573,-0.62848383,0.07062722,-0.66428834,-0.2796557,-0.35923466,-0.31944516,0.6506118,-0.05563573,-0.62848383,0.07062722,-0.66428834,-0.40738165,-0.21643229,-0.4494693,-0.20449744,-0.20449744,-0.4494693,0.20739907,0.007386542,0.25070423,0.054460093,1065,1.490325927734375,479.4687563578288,728.522113263607,970.2662471930186,240.47954114278158,849.3941802283127
0,4,-0.089273185,-0.64448303,0.10965801,-0.5986102,-0.35199142,-0.25936282,-0.30567712,0.66069555,-0.089273185,-0.64448303,0.10965801,-0.5986102,-0.37781173,-0.1927418,-0.44412214,-0.20803274,-0.20803274,-0.44412214,0.20306891,0.017430168,0.22122905,0.11284916,895,1.490325927734375,479.4687563578288,970.2662471930186,1212.01038112243,240.47954114278158,1091.1383141577244
0,5,-0.05382437,-0.58245003,0.05858401,-0.45645905,-0.22226165,-0.29481304,-0.25853735,0.6837664,-0.05382437,-0.58245003,0.05858401,-0.45645905,-0.326775,-0.15056647,-0.36424446,-0.19256344,-0.19256344,-0.36424446,0.1959359,0.099882774,0.13247362,0.39038688,853,1.490325927734375,479.4687563578288,1212.01038112243,1453.7545150518417,240.47954114278158,1332.8824480871358
0,6,-0.09055739,-0.69411576,0.26035246,-0.1395304,-0.15025617,-0.18166937,-0.16596279,0.66031575,-0.09055739,-0.69411576,0.26035246,-0.1395304,-0.19109793,0.010088225,-0.30806786,-0.17477357,-0.17477357,-0.30806786,0.18679546,0.17137197,0.09806835,0.65527487,673,1.490325927734375,479.4687563578288,1453.7545150518417,1695.4986489812532,240.47954114278158,1574.6265820165474
0,7,-0.09079362,-0.4932265,0.11455949,0.082550175,-0.094284296,-0.09917091,-0.09672761,0.6141183,-0.09079362,-0.4932265,0.11455949,0.082550175,-0.098705605,0.035438683,-0.16715664,-0.15648687,-0.15648687,-0.16715664,0.15661256,0.24545456,0.03409091,0.8230519,616,1.490325927734375,479.4687563578288,1695.4986489812532,1937.2427829106648,240.47954114278158,1816.370715945959
0,8,-0.1175449,-0.58482033,0.14499381,-0.04522836,-0.13448484,-0.16681503,-0.15064995,0.6545392,-0.1175449,-0.58482033,0.14499381,-0.04522836,-0.16168496,-0.0059264842,-0.24919784,-0.18579046,-0.18579046,-0.24919784,0.15012196,0.22012196,0.04573171,0.6859756,656,1.490325927734375,479.4687563578288,1937.2427829106648,2178.9869168400764,240.47954114278158,2058.1148498753705
0,9,-0.097339824,-0.7233255,0.16664152,-0.091184355,-0.16866945,-0.20393461,-0.18630204,0.67308587,-0.097339824,-0.7233255,0.16664152,-0.091184355,-0.2159561,-0.0072942213,-0.3039499,-0.21800792,-0.21800792,-0.3039499,0.16548567,0.18476821,0.034768213,0.6903973,604,1.490325927734375,479.4687563578288,2178.9869168400764,2420.731050769488,240.47954114278158,2299.858983804782
0,10,-0.10584992,-0.7166554,0.30460203,0.014360334,-0.13419478,-0.11757669,-0.12588573,0.6656341,-0.10584992,-0.7166554,0.30460203,0.014360334,-0.13256434,0.07103747,-0.26938164,-0.17263442,-0.17263442,-0.26938164,0.15712664,0.17353776,0.037478704,0.67291313,587,1.490325927734375,479.4687563578288,2420.731050769488,2662.4751846988993,240.47954114278158,2541.603117734194
0,11,-0.0033142653,-0.5665985,0.1849711,0.048682004,-0.12885436,-0.039275464,-0.084064916,0.67567456,-0.0033142653,-0.5665985,0.1849711,0.048682004,-0.1109818,0.076779604,-0.17374359,-0.12831388,-0.12831388,-0.17374359,0.14357865,0.20663783,0.031746034,0.7171717,693,1.490325927734375,479.4687563578288,2662.4751846988993,2904.219318628311,240.47954114278158,2783.347251663605
0,12,-0.13750747,-0.7179449,0.034110323,-0.13748707,-0.19581316,-0.28360137,-0.23970728,0.6744736,-0.13750747,-0.7179449,0.034110323,-0.13748707,-0.27377388,-0.080294736,-0.3309798,-0.27378067,-0.27378067,-0.3309798,0.15538561,0.17542484,0.064705886,0.71568626,510,1.490325927734375,479.4687563578288,2904.219318628311,3145.9634525577226,240.47954114278158,3025.0913855930166
0,13,-0.08604273,-0.5964432,0.16941187,-0.14729315,-0.1645006,-0.16568299,-0.1650918,0.6706567,-0.08604273,-0.5964432,0.16941187,-0.14729315,-0.19144148,-0.021308007,-0.27659303,-0.17102467,-0.17102467,-0.27659303,0.19269623,0.14016621,0.1468144,0.5858726,722,1.490325927734375,479.4687563578288,3145.9634525577226,3387.707586487134,240.47954114278158,3266.8355195224285
0,14,-0.04653543,-0.4934612,0.25078484,0.036748935,-0.13792795,0.011696539,-0.06311571,0.66171205,-0.04653543,-0.4934612,0.25078484,0.036748935,-0.06864247,0.08033279,-0.16774923,-0.09640393,-0.09640393,-0.16774923,0.17003192,0.17856818,0.08344733,0.7004104,731,1.490325927734375,479.4687563578288,3387.707586487134,3629.451720416546,240.47954114278158,3508.57965345184
0,15,-0.024839297,-0.3972687,0.33421224,0.0081469035,-0.09556699,0.055692554,-0.019937221,0.66535574,-0.024839297,-0.3972687,0.33421224,0.0081469035,-0.018303197,0.10583995,-0.13798703,-0.029298594,-0.029298594,-0.13798703,0.17936754,0.15794872,0.056410257,0.7307692,780,1.490325927734375,479.4687563578288,3629.451720416546,3871.1958543459573,240.47954114278158,3750.3237873812513
0,16,0.056675542,-0.27402693,0.28170016,-0.05838188,-0.12293896,0.12592241,0.0014917229,0.67965865,0.056675542,-0.27402693,0.28170016,-0.05838188,-0.016902884,0.09333127,-0.09191109,0.02144959,0.02144959,-0.09191109,0.17736523,0.11404708,0.06378132,0.5455581,878,1.490325927734375,479.4687563578288,3871.1958543459573,4112.939988275369,240.47954114278158,3992.067921310663
0,17,0.11821305,0.05218202,0.01750339,-0.29052886,-0.1949888,0.1436736,-0.025657604,0.72159207,0.11821305,0.05218202,0.01750339,-0.29052886,-0.073614486,-0.051604144,-0.0400446,0.06263282,0.06263282,-0.0400446,0.25641173,0.054642748,0.40604344,0.34183192,1059,1.490325927734375,479.4687563578288,4112.939988275369,4354.684122204781,240.47954114278158,4233.812055240074
0,18,0.013543747,-0.18844989,-0.073044084,-0.6698541,-0.35399374,-0.10490839,-0.22945108,0.7355274,0.013543747,-0.18844989,-0.073044084,-0.6698541,-0.31044933,-0.24311814,-0.28158674,-0.08265008,-0.08265008,-0.28158674,0.2607528,0.0104933,0.43627033,0.076133445,1169,1.490325927734375,479.4687563578288,4354.684122204781,4596.4282561341915,240.47954114278158,4475.556189169486
0,19,0.14618066,0.025570186,-0.13518782,-0.4949635,-0.23606187,0.0068616252,-0.114600115,0.72144985,0.14618066,0.025570186,-0.13518782,-0.4949635,-0.20152704,-0.16132355,-0.10773755,0.012187676,0.012187676,-0.10773755,0.23153967,0.025920168,0.32426128,0.16018662,1286,1.490325927734375,479.4687563578288,4596.4282561341915,4838.172390063603,240.47954114278158,4717.300323098898
0,20,0.08456501,-0.09299356,-0.028305346,-0.1525165,-0.09408107,-0.0005441292,-0.0473126,0.68904954,0.08456501,-0.09299356,-0.028305346,-0.1525165,-0.0912718,-0.032085612,-0.05364835,-0.012244626,-0.012244626,-0.05364835,0.18118209,0.11585904,0.121145375,0.5429515,908,1.490325927734375,479.4687563578288,4838.172390063603,5079.916523993015,240.47954114278158,4959.044457028309
0,21,-0.0076532643,-0.13238211,-0.0059218393,-0.47600013,-0.03966567,-0.271313,-0.15548934,0.76359916,-0.0076532643,-0.13238211,-0.0059218393,-0.47600013,-0.20476802,-0.16319175,-0.20534517,-0.048652403,-0.048652403,-0.20534517,0.2199544,0.049794804,0.26402187,0.30369356,731,1.490325927734375,479.4687563578288,5079.916523993015,5321.660657922426,240.47954114278158,5200.788590957721
0,22,-0.064211555,-0.118834,-0.08361756,-0.62186366,-0.023873836,-0.42038956,-0.22213168,0.78190106,-0.064211555,-0.118834,-0.08361756,-0.62186366,-0.27477172,-0.25656426,-0.26830307,-0.0888877,-0.0888877,-0.26830307,0.24638554,0.020615797,0.3995984,0.13052209,498,1.490325927734375,479.4687563578288,5321.660657922426,5563.404791851838,240.47954114278158,5442.532724887133
1,0,-0.10552722,-0.94356567,-0.10401954,-0.8555311,-0.48800772,-0.516314,-0.5021609,0.6961691,-0.10552722,-0.94356567,-0.10401954,-0.8555311,-0.6343721,-0.35502598,-0.63487464,-0.3843708,-0.3843708,-0.63487464,0.17871253,0.0067019407,0.06349207,0.05026455,378,479.4687563578288,957.4471867879232,3.2897114753723145,245.03384540478388,718.457971572876,124.1617784400781
1,1,-0.01761081,-0.5444991,-0.059931617,-0.53285253,-0.3174526,-0.25999442,-0.2887235,0.63676,-0.01761081,-0.5444991,-0.059931617,-0.53285253,-0.37909442,-0.20346498,-0.3649875,-0.20734718,-0.20734718,-0.3649875,0.15811366,0.021872016,0.07234957,0.14899713,1396,479.4687563578288,957.4471867879232,245.03384540478388,486.77797933419544,718.457971572876,365.90591236948967
1,2,-0.05544962,-0.57254666,0.10207408,-0.5199569,-0.30437675,-0.21856278,-0.26146978,0.6613729,-0.05544962,-0.57254666,0.10207408,-0.5199569,-0.33014315,-0.15777747,-0.38265106,-0.17530741,-0.17530741,-0.38265106,0.21678783,0.02149736,0.25908667,0.1500466,1073,479.4687563578288,957.4471867879232,486.77797933419544,728.522113263607,718.457971572876,607.6500462989012
1,3,-0.18445116,-0.36910176,-0.13999021,-0.6058267,-0.31041273,-0.33927217,-0.32484242,0.575083,-0.18445116,-0.36910176,-0.13999021,-0.6058267,-0.37163955,-0.31008935,-0.38645986,-0.23118106,-0.23118106,-0.38645986,0.09275483,0.0042516124,0.05645583,0.031887088,1913,479.4687563578288,957.4471867879232,728.522113263607,970.2662471930186,718.457971572876,849.3941802283127
1,4,-0.01663229,-0.3930583,0.04554812,-0.49457937,-0.20660585,-0.22275507,-0.21468046,0.6759435,-0.01663229,-0.3930583,0.04554812,-0.49457937,-0.28069654,-0.15522118,-0.3014233,-0.121380836,-0.121380836,-0.3014233,0.22216809,0.028241176,0.27272728,0.17338331,1067,479.4687563578288,957.4471867879232,970.2662471930186,1212.01038112243,718.457971572876,1091.1383141577244
1,5,-0.010547356,-0.44187003,0.06093088,-0.10395111,-0.11893299,-0.1287858,-0.1238594,0.64530087,-0.010547356,-0.44187003,0.06093088,-0.10395111,-0.16163008,-0.017855858,-0.18545617,-0.1304955,-0.1304955,-0.18545617,0.1754869,0.16525097,0.077220075,0.6975547,777,479.4687563578288,957.4471867879232,1212.01038112243,1453.7545150518417,718.457971572876,1332.8824480871358
1,6,-0.10549414,-0.6004976,0.18839939,-0.23946902,-0.15785281,-0.22067787,-0.18926536,0.6596722,-0.10549414,-0.6004976,0.18839939,-0.23946902,-0.21718907,-0.052187935,-0.3151536,-0.17253079,-0.17253079,-0.3151536,0.19896716,0.1230047,0.16901408,0.5605634,710,479.4687563578288,957.4471867879232,1453.7545150518417,1695.4986489812532,718.457971572876,1574.6265820165474
1,7,-0.10035277,-0.583516,0.2080147,-0.08839683,-0.12856725,-0.15355818,-0.14106272,0.6559021,-0.10035277,-0.583516,0.2080147,-0.08839683,-0.1546327,0.0064216987,-0.25742188,-0.15861802,-0.15861802,-0.25742188,0.19435538,0.16165026,0.15752462,0.65682137,711,479.4687563578288,957.4471867879232,1695.4986489812532,1937.2427829106648,718.457971572876,1816.370715945959
1,8,-0.0913345,-0.43326098,0.03867435,-0.11329995,-0.105653234,-0.1939573,-0.14980526,0.63611627,-0.0913345,-0.43326098,0.03867435,-0.11329995,-0.16929552,-0.05532003,-0.2126318,-0.1619737,-0.1619737,-0.2126318,0.17497568,0.19878346,0.14051095,0.7281022,548,479.4687563578288,957.4471867879232,1937.2427829106648,2178.9869168400764,718.457971572876,2058.1148498753705
1,9,-0.1274657,-0.50758153,0.10303844,-0.081498615,-0.082616895,-0.2241368,-0.15337686,0.6617462,-0.1274657,-0.50758153,0.10303844,-0.081498615,-0.16201389,-0.035308626,-0.23884861,-0.17733626,-0.17733626,-0.23884861,0.1690037,0.20073801,0.09225092,0.73985237,542,479.4687563578288,957.4471867879232,2178.9869168400764,2420.731050769488,718.457971572876,2299.858983804782
1,10,-0.13517147,-0.6095275,0.41839302,-0.021317177,-0.08590435,-0.08790723,-0.0869058,0.6500858,-0.13517147,-0.6095275,0.41839302,-0.021317177,-0.07081724,0.087301455,-0.25533873,-0.108768664,-0.108768664,-0.25533873,0.19286074,0.13333334,0.12820514,0.54751134,663,479.4687563578288,957.4471867879232,2420.731050769488,2662.4751846988993,718.457971572876,2541.603117734194
1,11,-0.100728825,-0.46731392,0.53478307,0.033069454,-0.06564622,0.06555113,-4.7549394e-05,0.62745154,-0.100728825,-0.46731392,0.53478307,0.033069454,0.033512875,0.1557079,-0.17832442,-0.0110865515,-0.0110865515,-0.17832442,0.20492493,0.11514372,0.1891892,0.46332046,777,479.4687563578288,957.4471867879232,2662.4751846988993,2904.219318628311,718.457971572876,2783.347251663605
1,12,-0.1875945,-0.62590915,-0.16132475,0.0037507645,-0.18567218,-0.29986665,-0.2427694,0.64007807,-0.1875945,-0.62590915,-0.16132475,0.0037507645,-0.26116103,-0.11505616,-0.2699176,-0.3249428,-0.3249428,-0.2699176,0.108813085,0.2933902,0.046908315,0.84008527,469,479.4687563578288,957.4471867879232,2904.219318628311,3145.9634525577226,718.457971572876,3025.0913855930166
1,13,-0.09840938,-0.28429917,0.21281698,0.09336575,-0.07943328,0.04117038,-0.019131448,0.62388325,-0.09840938,-0.28429917,0.21281698,0.09336575,0.007294526,0.06925779,-0.096447594,-0.056630515,-0.056630515,-0.096447594,0.15198441,0.19732442,0.053511705,0.68729097,598,479.4687563578288,957.4471867879232,3145.9634525577226,3387.707586487134,718.457971572876,3266.8355195224285
1,14,-0.06495726,-0.38181815,0.40824652,0.14365777,-0.08352893,0.13609336,0.026282214,0.6452567,-0.06495726,-0.38181815,0.40824652,0.14365777,0.056695372,0.16231567,-0.101039216,-0.012842975,-0.012842975,-0.101039216,0.17685676,0.17060733,0.06815021,0.6425591,719,479.4687563578288,957.4471867879232,3387.707586487134,3629.451720416546,718.457971572876,3508.57965345184
1,15,-0.00909866,-0.32021707,0.38106295,0.037430882,-0.052563418,0.097152464,0.022294521,0.66967535,-0.00909866,-0.32021707,0.38106295,0.037430882,0.032758918,0.13646506,-0.09729496,0.017249068,0.017249068,-0.09729496,0.17631553,0.14513996,0.06870229,0.63053435,655,479.4687563578288,957.4471867879232,3629.451720416546,3871.1958543459573,718.457971572876,3750.3237873812513
1,16,0.06429016,-0.24787062,0.51463157,0.07651127,-0.0248026,0.2285838,0.101890594,0.6703141,0.06429016,-0.24787062,0.51463157,0.07651127,0.11442407,0.21847767,-0.035689738,0.11035038,0.11035038,-0.035689738,0.17316797,0.10774588,0.024804177,0.5652742,766,479.4687563578288,957.4471867879232,3871.1958543459573,4112.939988275369,718.457971572876,3992.067921310663
1,17,0.044822976,-0.22620006,0.29611945,0.0076524643,-0.11294894,0.17414635,0.030598711,0.67064226,0.044822976,-0.22620006,0.29611945,0.0076524643,0.025857292,0.1161983,-0.057908203,0.038247462,0.038247462,-0.057908203,0.1838073,0.11111111,0.07109557,0.57575756,858,479.4687563578288,957.4471867879232,4112.939988275369,4354.684122204781,718.457971572876,4233.812055240074
1,18,0.073747724,-0.09876796,0.16901278,-0.19301991,-0.20211245,0.17759877,-0.012256839,0.73877954,0.073747724,-0.09876796,0.16901278,-0.19301991,-0.040925026,0.0165802,-0.072680056,0.04799752,0.04799752,-0.072680056,0.20431444,0.042535044,0.15265082,0.28976235,1094,479.4687563578288,957.4471867879232,4354.684122204781,4596.4282561341915,718.457971572876,4475.556189169486
1,19,-0.0011667744,0.079979114,-0.04517906,-0.52629685,-0.348898,0.10256621,-0.12316589,0.7994863,-0.0011667744,0.079979114,-0.04517906,-0.52629685,-0.16383226,-0.1908809,-0.1491615,0.0112110935,0.0112110935,-0.1491615,0.2801239,0.019351033,0.5247788,0.12300885,1130,479.4687563578288,957.4471867879232,4596.4282561341915,4838.172390063603,718.457971572876,4717.300323098898
1,20,0.23166487,0.11887316,0.25172487,-0.06727684,-0.11050267,0.3779957,0.13374652,0.7959216,0.23166487,0.11887316,0.25172487,-0.06727684,0.10110707,0.1387043,0.094420396,0.2007543,0.2007543,0.094420396,0.18056059,0.10042195,0.14647378,0.47830018,1106,479.4687563578288,957.4471867879232,4838.172390063603,5079.916523993015,718.457971572876,4959.044457028309
1,21,0.14240634,0.00682351,0.26991954,-0.032220725,-0.064117596,0.25758192,0.09673217,0.7494372,0.14240634,0.00682351,0.26991954,-0.032220725,0.081507444,0.12670171,0.03900304,0.13971648,0.13971648,0.03900304,0.17443879,0.124659866,0.049744897,0.54591835,784,479.4687563578288,957.4471867879232,5079.916523993015,5321.660657922426,718.457971572876,5200.788590957721
1,22,0.1369197,0.06519659,0.26205987,-0.14145447,0.0016162436,0.1597446,0.08068043,0.7758416,0.1369197,0.06519659,0.26205987,-0.14145447,0.061934005,0.0858417,0.020220608,0.15472539,0.15472539,0.020220608,0.1795288,0.100872606,0.06806283,0.5471204,382,479.4687563578288,957.4471867879232,5321.660657922426,5563.404791851838,718.457971572876,5442.532724887133
1,23,-0.36924732,-1.564637,-0.74324846,-2.8642507,-1.4899637,-1.280728,-1.3853458,0.36450115,-0.36924732,-1.564637,-0.74324846,-2.8642507,-1.7240454,-1.3255821,-1.5993782,-0.89237756,-0.89237756,-1.5993782,0.18666667,0.26666668,0.0,1.0,1,479.4687563578288,957.4471867879232,5563.404791851838,5805.14892578125,718.457971572876,5684.276858816544
2,0,-0.13030796,-0.48417908,-0.016900582,-0.65582335,-0.29270515,-0.35090035,-0.32180274,0.64488775,-0.13030796,-0.48417908,-0.016900582,-0.65582335,-0.38563433,-0.2676773,-0.42343682,-0.21046254,-0.21046254,-0.42343682,0.13338159,0.0056292727,0.084439084,0.042219542,1658,957.4471867879232,1435.4256172180176,3.2897114753723145,245.03384540478388,1196.4364020029705,124.1617784400781
2,1,-0.042795487,-0.54003435,-0.035845503,-0.47615954,-0.33073884,-0.21667862,-0.27370873,0.6347264,-0.042795487,-0.54003435,-0.035845503,-0.47615954,-0.3506798,-0.18493351,-0.35299647,-0.20622513,-0.20622513,-0.35299647,0.15195566,0.01897492,0.07306434,0.13195202,1834,957.4471867879232,1435.4256172180176,245.03384540478388,486.77797933419544,1196.4364020029705,365.90591236948967
2,2,-0.1446405,-0.51902014,-0.04719824,-0.43518195,-0.35767892,-0.21534151,-0.2865102,0.58059824,-0.1446405,-0.51902014,-0.04719824,-0.43518195,-0.3338001,-0.20900689,-0.36628085,-0.23695296,-0.23695296,-0.36628085,0.13694328,0.023482589,0.13432837,0.1641791,1675,957.4471867879232,1435.4256172180176,486.77797933419544,728.522113263607,1196.4364020029705,607.6500462989012
2,3,-0.13013671,-0.6381337,-0.10035728,-0.6058725,-0.40150174,-0.33574837,-0.36862504,0.6383163,-0.13013671,-0.6381337,-0.10035728,-0.6058725,-0.44812113,-0.27878883,-0.45804766,-0.28954256,-0.28954256,-0.45804766,0.1234093,0.010187668,0.11126006,0.07439678,1492,957.4471867879232,1435.4256172180176,728.522113263607,970.2662471930186,1196.4364020029705,849.3941802283127
2,4,-0.02364415,-0.22678581,-0.18967405,-0.52754915,-0.22267437,-0.2611522,-0.24191329,0.6647956,-0.02364415,-0.22678581,-0.18967405,-0.52754915,-0.31466967,-0.24695578,-0.25932637,-0.14670134,-0.14670134,-0.25932637,0.2578455,0.043090317,0.47116432,0.24483134,919,957.4471867879232,1435.4256172180176,970.2662471930186,1212.01038112243,1196.4364020029705,1091.1383141577244
2,5,-0.08188851,-0.47071227,0.09126314,-0.10278458,-0.1363872,-0.1456739,-0.14103055,0.6409149,-0.08188851,-0.47071227,0.09126314,-0.10278458,-0.16074458,-0.03113665,-0.21846178,-0.15377921,-0.15377921,-0.21846178,0.17995775,0.16819863,0.13312203,0.61014265,631,957.4471867879232,1435.4256172180176,1212.01038112243,1453.7545150518417,1196.4364020029705,1332.8824480871358
2,6,-0.115122676,-0.3727453,0.17848523,-0.27284414,-0.08206497,-0.20904846,-0.14555673,0.675099,-0.115122676,-0.3727453,0.17848523,-0.27284414,-0.1557014,-0.06982719,-0.2535707,-0.10312758,-0.10312758,-0.2535707,0.22096106,0.133738,0.32018209,0.5022762,659,957.4471867879232,1435.4256172180176,1453.7545150518417,1695.4986489812532,1196.4364020029705,1574.6265820165474
2,7,-0.11249427,-0.30522174,-0.1060612,-0.07038177,-0.08991643,-0.20716305,-0.14853974,0.63011545,-0.11249427,-0.30522174,-0.1060612,-0.07038177,-0.1605549,-0.09631241,-0.16269925,-0.1745924,-0.1745924,-0.16269925,0.17292929,0.24430977,0.20808081,0.7919192,495,957.4471867879232,1435.4256172180176,1695.4986489812532,1937.2427829106648,1196.4364020029705,1816.370715945959
2,8,-0.10990614,-0.41129085,0.058066882,0.09501454,-0.10120377,-0.082853995,-0.092028886,0.6150815,-0.10990614,-0.41129085,0.058066882,0.09501454,-0.08606981,0.014391761,-0.14206082,-0.15437669,-0.15437669,-0.14206082,0.1470738,0.2513995,0.114503816,0.72900766,524,957.4471867879232,1435.4256172180176,1937.2427829106648,2178.9869168400764,1196.4364020029705,2058.1148498753705
2,9,-0.12654462,-0.41325068,0.040692355,-0.21837582,-0.15854368,-0.20019569,-0.17936969,0.67642176,-0.12654462,-0.41325068,0.040692355,-0.21837582,-0.19697805,-0.10140936,-0.2527237,-0.16636765,-0.16636765,-0.2527237,0.18089901,0.15738471,0.2084063,0.6094571,571,957.4471867879232,1435.4256172180176,2178.9869168400764,2420.731050769488,1196.4364020029705,2299.858983804782
2,10,-0.12317723,-0.32543948,0.34385502,-0.06477185,-0.058842994,-0.025923774,-0.042383388,0.638403,-0.12317723,-0.32543948,0.34385502,-0.06477185,-0.0154521065,0.051968645,-0.17112952,-0.034920566,-0.034920566,-0.17112952,0.21821639,0.14795323,0.34356725,0.50292397,684,957.4471867879232,1435.4256172180176,2420.731050769488,2662.4751846988993,1196.4364020029705,2541.603117734194
2,11,-0.14917837,-0.34200537,0.06397356,0.08214536,-0.094378754,-0.078153655,-0.086266205,0.5925192,-0.14917837,-0.34200537,0.06397356,0.08214536,-0.06529548,-0.0010198174,-0.13634612,-0.1424034,-0.1424034,-0.13634612,0.15207547,0.24192873,0.12264151,0.740566,636,957.4471867879232,1435.4256172180176,2662.4751846988993,2904.219318628311,1196.4364020029705,2783.347251663605
2,12,-0.14789352,-0.3905874,0.2735448,-0.07279458,-0.09183417,-0.07703116,-0.08443267,0.6348509,-0.14789352,-0.3905874,0.2735448,-0.07279458,-0.063279055,0.017618895,-0.2037585,-0.08831204,-0.08831204,-0.2037585,0.18842843,0.1991992,0.25825825,0.6051051,666,957.4471867879232,1435.4256172180176,2904.219318628311,3145.9634525577226,1196.4364020029705,3025.0913855930166
2,13,-0.06850263,-0.28473938,0.6231763,0.051927865,-0.030644683,0.19157575,0.08046554,0.639947,-0.06850263,-0.28473938,0.6231763,0.051927865,0.13012159,0.2022005,-0.10043804,0.08997809,0.08997809,-0.10043804,0.21688245,0.08928572,0.2109375,0.375,896,957.4471867879232,1435.4256172180176,3145.9634525577226,3387.707586487134,1196.4364020029705,3266.8355195224285
2,14,-0.1052843,-0.36810067,0.34509927,0.115230404,-0.079790585,0.073262945,-0.0032638218,0.6443481,-0.1052843,-0.36810067,0.34509927,0.115230404,0.030743008,0.11834846,-0.119384855,-0.042761903,-0.042761903,-0.119384855,0.16486312,0.21213098,0.08373591,0.69243157,621,957.4471867879232,1435.4256172180176,3387.707586487134,3629.451720416546,1196.4364020029705,3508.57965345184
2,15,-0.045220263,-0.28709325,0.42660373,0.048330747,-0.05190648,0.12321696,0.035655238,0.6763149,-0.045220263,-0.28709325,0.42660373,0.048330747,0.06261373,0.14323807,-0.09466092,0.031430066,0.031430066,-0.09466092,0.1788509,0.10396717,0.067031465,0.48153216,731,957.4471867879232,1435.4256172180176,3629.451720416546,3871.1958543459573,1196.4364020029705,3750.3237873812513
2,16,-0.033282027,-0.35121274,0.47046039,0.09997397,-0.08734193,0.18031174,0.046484903,0.6873895,-0.033282027,-0.35121274,0.47046039,0.09997397,0.07307388,0.17905079,-0.094840266,0.028655212,0.028655212,-0.094840266,0.17447247,0.11615313,0.05042017,0.5532213,714,957.4471867879232,1435.4256172180176,3871.1958543459573,4112.939988275369,1196.4364020029705,3992.067921310663
2,17,0.012367335,-0.32373,0.4931503,0.108038895,-0.06455834,0.20947158,0.07245662,0.7002863,0.012367335,-0.32373,0.4931503,0.108038895,0.09248638,0.20451884,-0.067774594,0.060595866,0.060595866,-0.067774594,0.17413181,0.13698894,0.060606062,0.6089466,693,957.4471867879232,1435.4256172180176,4112.939988275369,4354.684122204781,1196.4364020029705,4233.812055240074
2,18,0.029723212,-0.10791228,0.422323,0.005034185,-0.10338881,0.27797288,0.08729203,0.73759925,0.029723212,-0.10791228,0.422323,0.005034185,0.10648163,0.15236013,-0.02438496,0.11471131,0.11471131,-0.02438496,0.19122502,0.0785169,0.1046892,0.42529988,917,957.4471867879232,1435.4256172180176,4354.684122204781,4596.4282561341915,1196.4364020029705,4475.556189169486
2,19,0.17196116,0.3088676,0.43980494,-0.0557984,-0.067838706,0.50025636,0.21620883,0.8134737,0.17196116,0.3088676,0.43980494,-0.0557984,0.23095804,0.18532255,0.1416768,0.3068779,0.3068779,0.1416768,0.22141643,0.041538987,0.16751787,0.26864147,979,957.4471867879232,1435.4256172180176,4596.4282561341915,4838.172390063603,1196.4364020029705,4717.300323098898
2,20,0.18773283,0.30538565,0.38464183,-0.11755936,-0.13947296,0.5195734,0.19005024,0.8996404,0.18773283,0.30538565,0.38464183,-0.11755936,0.1908227,0.1516051,0.12518638,0.29258674,0.29258674,0.12518638,0.207199,0.054596104,0.17734447,0.29712164,1077,957.4471867879232,1435.4256172180176,4838.172390063603,5079.916523993015,1196.4364020029705,4959.044457028309
2,21,0.14146718,0.14652668,0.3594102,-0.010182241,-0.109379195,0.4279901,0.15930545,0.86297095,0.14146718,0.14652668,0.3594102,-0.010182241,0.16525154,0.16356505,0.09260388,0.21580136,0.21580136,0.09260388,0.17918028,0.10823359,0.05005441,0.5288357,919,957.4471867879232,1435.4256172180176,5079.916523993015,5321.660657922426,1196.4364020029705,5200.788590957721
2,22,0.12740462,-0.02642776,0.44557324,0.04835702,-0.08331199,0.38076553,0.14872678,0.8441051,0.12740462,-0.02642776,0.44557324,0.04835702,0.15583415,0.20711161,0.049777962,0.18218336,0.18218336,0.049777962,0.18139131,0.10318841,0.028985508,0.46666667,345,957.4471867879232,1435.4256172180176,5321.660657922426,5563.404791851838,1196.4364020029705,5442.532724887133
3,0,-0.056755062,-0.58690625,-0.03461724,-0.63823664,-0.34489912,-0.31335852,-0.3291288,0.66903096,-0.056755062,-0.58690625,-0.03461724,-0.63823664,-0.41992006,-0.243203,-0.42729935,-0.22609286,-0.22609286,-0.42729935,0.16239095,0.010626459,0.13839526,0.07754443,1857,1435.4256172180176,1913.404047648112,3.2897114753723145,245.03384540478388,1674.414832433065,124.1617784400781
3,1,-0.14408977,-0.48673767,-0.052091934,-0.4832436,-0.34144568,-0.24163581,-0.29154074,0.59329927,-0.14408977,-0.48673767,-0.052091934,-0.4832436,-0.3406911,-0.2264751,-0.37135702,-0.22763978,-0.22763978,-0.37135702,0.123908326,0.008693934,0.09484292,0.062240664,1687,1435.4256172180176,1913.404047648112,245.03384540478388,486.77797933419544,1674.414832433065,365.90591236948967
3,2,-0.14233172,-0.492811,0.18116885,-0.4428045,-0.21576206,-0.23262712,-0.22419459,0.6167116,-0.14233172,-0.492811,0.18116885,-0.4428045,-0.25148222,-0.13465579,-0.35931575,-0.15132461,-0.15132461,-0.35931575,0.19343774,0.013571962,0.26845637,0.09731544,894,1435.4256172180176,1913.404047648112,486.77797933419544,728.522113263607,1674.414832433065,607.6500462989012
3,3,-0.062355075,-0.2607132,0.11180016,-0.7333351,-0.1955958,-0.27670577,-0.23615079,0.70431894,-0.062355075,-0.2607132,0.11180016,-0.7333351,-0.2940827,-0.22796331,-0.35213447,-0.0704227,-0.0704227,-0.35213447,0.29813954,0.006527948,0.6376989,0.04161567,817,1435.4256172180176,1913.404047648112,728.522113263607,970.2662471930186,1674.414832433065,849.3941802283127
3,4,-0.11190832,-0.56455797,0.052245066,-0.4715583,-0.16277228,-0.3851175,-0.27394488,0.6896223,-0.11190832,-0.56455797,0.052245066,-0.4715583,-0.3279571,-0.17707385,-0.38267487,-0.20807375,-0.20807375,-0.38267487,0.21285793,0.06482983,0.22366288,0.33711508,617,1435.4256172180176,1913.404047648112,970.2662471930186,1212.01038112243,1674.414832433065,1091.1383141577244
3,5,-0.09900408,-0.4359205,0.33240443,-0.10199784,-0.050352477,-0.101906516,-0.076129496,0.63202864,-0.09900408,-0.4359205,0.33240443,-0.10199784,-0.06850463,0.043800835,-0.21230747,-0.067506716,-0.067506716,-0.21230747,0.19924837,0.13660131,0.14869282,0.5522876,612,1435.4256172180176,1913.404047648112,1212.01038112243,1453.7545150518417,1674.414832433065,1332.8824480871358
3,6,-0.085110396,-0.34249964,0.09337502,-0.31703618,-0.07308214,-0.25255346,-0.16281779,0.6840747,-0.085110396,-0.34249964,0.09337502,-0.31703618,-0.18872027,-0.10292386,-0.2482154,-0.11141167,-0.11141167,-0.2482154,0.2184024,0.102342345,0.25945947,0.45945945,555,1435.4256172180176,1913.404047648112,1453.7545150518417,1695.4986489812532,1674.414832433065,1574.6265820165474
3,7,-0.09325635,-0.3193374,0.4111559,-0.10903864,-0.010688355,-0.044549882,-0.027619122,0.64196074,-0.09325635,-0.3193374,0.4111559,-0.10903864,-0.0057400456,0.0696203,-0.17387746,-0.00047928377,-0.00047928377,-0.17387746,0.22084737,0.11413988,0.3062787,0.50382847,653,1435.4256172180176,1913.404047648112,1695.4986489812532,1937.2427829106648,1674.414832433065,1816.370715945959
3,8,-0.13945213,-0.35311013,0.060629897,-0.09131285,-0.09979942,-0.16182318,-0.1308113,0.6453737,-0.13945213,-0.35311013,0.060629897,-0.09131285,-0.12793103,-0.056711696,-0.19462503,-0.14397745,-0.14397745,-0.19462503,0.16900267,0.19114669,0.2032,0.68,625,1435.4256172180176,1913.404047648112,1937.2427829106648,2178.9869168400764,1674.414832433065,2058.1148498753705
3,9,-0.1672424,-0.43783563,0.19139601,-0.018152151,-0.08605078,-0.1298663,-0.10795853,0.6522334,-0.1672424,-0.43783563,0.19139601,-0.018152151,-0.08819726,0.0020004949,-0.20774339,-0.137894,-0.137894,-0.20774339,0.18887424,0.14717188,0.21581548,0.6589786,607,1435.4256172180176,1913.404047648112,2178.9869168400764,2420.731050769488,1674.414832433065,2299.858983804782
3,10,-0.16449429,-0.4153242,0.43564922,-0.0047164024,-0.07723559,0.0027927388,-0.037221428,0.6583915,-0.16449429,-0.4153242,0.43564922,-0.0047164024,0.0052028643,0.08881284,-0.19484498,-0.048056435,-0.048056435,-0.19484498,0.21406594,0.12956569,0.31711146,0.53532183,637,1435.4256172180176,1913.404047648112,2420.731050769488,2662.4751846988993,1674.414832433065,2541.603117734194
3,11,-0.1560945,-0.3267858,-0.110115334,0.10035869,-0.112013884,-0.13430458,-0.123159245,0.6336126,-0.1560945,-0.3267858,-0.110115334,0.10035869,-0.112180814,-0.055283718,-0.12750721,-0.19766521,-0.19766521,-0.12750721,0.1248796,0.29683146,0.07794677,0.8498099,526,1435.4256172180176,1913.404047648112,2662.4751846988993,2904.219318628311,1674.414832433065,2783.347251663605
3,12,-0.16241191,-0.22947618,0.12583034,0.030165944,-0.06394419,-0.054001715,-0.058972955,0.6436093,-0.16241191,-0.22947618,0.12583034,0.030165944,-0.0244933,-0.002138544,-0.12057405,-0.08868592,-0.08868592,-0.12057405,0.15996851,0.21543308,0.19527559,0.69448817,635,1435.4256172180176,1913.404047648112,2904.219318628311,3145.9634525577226,1674.414832433065,3025.0913855930166
3,13,-0.12880115,-0.17345606,0.15718101,0.058172267,-0.0454709,0.0020189378,-0.02172598,0.606652,-0.12880115,-0.17345606,0.15718101,0.058172267,0.01396574,0.02885071,-0.081361644,-0.04835873,-0.04835873,-0.081361644,0.16354904,0.23509805,0.15147059,0.73970586,680,1435.4256172180176,1913.404047648112,3145.9634525577226,3387.707586487134,1674.414832433065,3266.8355195224285
3,14,-0.049842596,-0.15646979,0.5297806,0.030837698,-0.02250387,0.19965683,0.08857647,0.64565545,-0.049842596,-0.15646979,0.5297806,0.030837698,0.13471617,0.17025855,-0.058491565,0.10782274,0.10782274,-0.058491565,0.20442903,0.10015433,0.21180555,0.4398148,864,1435.4256172180176,1913.404047648112,3387.707586487134,3629.451720416546,1674.414832433065,3508.57965345184
3,15,-0.08927253,-0.17536376,0.23651202,-0.031375326,-0.062301073,0.032551277,-0.014874895,0.66082925,-0.08927253,-0.17536376,0.23651202,-0.031375326,0.009924313,0.038621396,-0.09867054,-0.009374753,-0.009374753,-0.09867054,0.17648801,0.13782543,0.16385911,0.51914245,653,1435.4256172180176,1913.404047648112,3629.451720416546,3871.1958543459573,1674.414832433065,3750.3237873812513
3,16,-0.0785028,-0.17816567,0.5653571,-0.0041917707,-0.0347053,0.18695371,0.076124206,0.6635419,-0.0785028,-0.17816567,0.5653571,-0.0041917707,0.12766655,0.1608875,-0.08695342,0.102896206,0.102896206,-0.08695342,0.20851645,0.07755869,0.2028169,0.42394367,710,1435.4256172180176,1913.404047648112,3871.1958543459573,4112.939988275369,1674.414832433065,3992.067921310663
3,17,-0.07181602,-0.37730277,0.6457889,0.16273163,-0.053547718,0.2332486,0.08985044,0.6910591,-0.07181602,-0.37730277,0.6457889,0.16273163,0.14373925,0.24556819,-0.09546238,0.065556705,0.065556705,-0.09546238,0.17638068,0.11637082,0.04585799,0.53402364,676,1435.4256172180176,1913.404047648112,4112.939988275369,4354.684122204781,1674.414832433065,4233.812055240074
3,18,0.01120618,-0.14390051,0.53378946,0.08093356,-0.078285836,0.31930017,0.12050717,0.751079,0.01120618,-0.14390051,0.53378946,0.08093356,0.15694083,0.20864308,-0.017253587,0.13369837,0.13369837,-0.017253587,0.1809219,0.093213834,0.05377721,0.49295774,781,1435.4256172180176,1913.404047648112,4354.684122204781,4596.4282561341915,1674.414832433065,4475.556189169486
3,19,0.08224199,0.08938814,0.55986154,0.20946418,0.024187196,0.44629073,0.23523897,0.8077115,0.08224199,0.08938814,0.55986154,0.20946418,0.28623796,0.28385592,0.12703145,0.24383056,0.24383056,0.12703145,0.17581522,0.15199275,0.05298913,0.6086956,736,1435.4256172180176,1913.404047648112,4596.4282561341915,4838.172390063603,1674.414832433065,4717.300323098898
3,20,0.06531796,0.06962446,0.6345938,0.2553122,0.01532391,0.49710026,0.2562121,0.8180762,0.06531796,0.06962446,0.6345938,0.2553122,0.31984347,0.31840798,0.13008487,0.25651208,0.25651208,0.13008487,0.17517209,0.15388969,0.022630835,0.6350778,707,1435.4256172180176,1913.404047648112,4838.172390063603,5079.916523993015,1674.414832433065,4959.044457028309
3,21,0.081675194,0.17349096,0.63089615,0.18368943,0.01832464,0.51655126,0.26743793,0.8379277,0.081675194,0.17349096,0.63089615,0.18368943,0.32935888,0.2987536,0.14628519,0.29535413,0.29535413,0.14628519,0.17277496,0.12131981,0.012690355,0.5393401,788,1435.4256172180176,1913.404047648112,5079.916523993015,5321.660657922426,1674.414832433065,5200.788590957721
3,22,0.08518154,0.11755606,0.6036554,0.11219866,-0.01095706,0.47025287,0.2296479,0.8266218,0.08518154,0.11755606,0.6036554,0.11219866,0.27780336,0.26701185,0.10497875,0.26879767,0.26879767,0.10497875,0.18409723,0.08101852,0.07986111,0.44791666,288,1435.4256172180176,1913.404047648112,5321.660657922426,5563.404791851838,1674.414832433065,5442.532724887133
4,0,-0.11424908,-0.4485235,0.08629128,-0.51411873,-0.26775402,-0.22754598,-0.24764998,0.6224049,-0.11424908,-0.4485235,0.08629128,-0.51411873,-0.29211697,-0.18069215,-0.35896376,-0.1588271,-0.1588271,-0.35896376,0.1567231,0.005815972,0.13216145,0.043619793,1536,1913.404047648112,2391.3824780782065,3.2897114753723145,245.03384540478388,2152.393262863159,124.1617784400781
4,1,-0.11282048,-0.5332413,0.30084834,-0.57713234,-0.20518795,-0.25598493,-0.23058645,0.6871407,-0.11282048,-0.5332413,0.30084834,-0.57713234,-0.26984176,-0.1297015,-0.40773138,-0.11507115,-0.11507115,-0.40773138,0.2709732,0.012787965,0.50070524,0.0944993,709,1913.404047648112,2391.3824780782065,245.03384540478388,486.77797933419544,2152.393262863159,365.90591236948967
4,2,-0.11733825,-0.46180543,0.25616273,-0.7128188,-0.23500748,-0.28289238,-0.25894994,0.7272956,-0.11733825,-0.46180543,0.25616273,-0.7128188,-0.3061538,-0.19133143,-0.43065414,-0.107660316,-0.107660316,-0.43065414,0.26155102,0.010884354,0.48707482,0.06666667,735,1913.404047648112,2391.3824780782065,486.77797933419544,728.522113263607,2152.393262863159,607.6500462989012
4,3,-0.017555123,-0.27384505,0.10367262,-0.29460362,-0.025878102,-0.21528748,-0.12058278,0.6839244,-0.017555123,-0.27384505,0.10367262,-0.29460362,-0.15492533,-0.069495365,-0.19533458,-0.06257585,-0.06257585,-0.19533458,0.19195801,0.11401575,0.15590551,0.4976378,635,1913.404047648112,2391.3824780782065,728.522113263607,970.2662471930186,2152.393262863159,849.3941802283127
4,4,-0.029185304,-0.19340725,0.27651748,-0.14750321,0.039738286,-0.08652743,-0.023394573,0.6613489,-0.029185304,-0.19340725,0.27651748,-0.14750321,-0.021464331,0.03327632,-0.12336525,0.017974975,0.017974975,-0.12336525,0.22221558,0.09640719,0.251497,0.4760479,668,1913.404047648112,2391.3824780782065,970.2662471930186,1212.01038112243,2152.393262863159,1091.1383141577244
4,5,0.0055540744,-0.283695,0.21728247,-0.073496476,-0.034548104,-0.03262936,-0.033588734,0.63775766,0.0055540744,-0.283695,0.21728247,-0.073496476,-0.046636336,0.049780026,-0.117212474,-0.020286154,-0.020286154,-0.117212474,0.19769622,0.12069317,0.1529052,0.6055046,654,1913.404047648112,2391.3824780782065,1212.01038112243,1453.7545150518417,2152.393262863159,1332.8824480871358
4,6,-0.020851161,-0.3949313,0.26136678,-0.19928683,-0.06555186,-0.11129937,-0.08842562,0.6968803,-0.020851161,-0.3949313,0.26136678,-0.19928683,-0.11095045,0.0137429405,-0.20502308,-0.051471885,-0.051471885,-0.20502308,0.20240682,0.10543131,0.23003195,0.4968051,626,1913.404047648112,2391.3824780782065,1453.7545150518417,1695.4986489812532,2152.393262863159,1574.6265820165474
4,7,-0.06598567,-0.22641112,0.39342028,-0.031079652,-0.025258863,0.060230777,0.017485954,0.65032595,-0.06598567,-0.22641112,0.39342028,-0.031079652,0.04530983,0.09878498,-0.10782549,0.03367449,0.03367449,-0.10782549,0.21207301,0.08518036,0.23859191,0.40156454,767,1913.404047648112,2391.3824780782065,1695.4986489812532,1937.2427829106648,2152.393262863159,1816.370715945959
4,8,-0.19261146,-0.29075494,0.04619052,0.18054423,-0.08434979,-0.04396604,-0.06415791,0.6050223,-0.19261146,-0.29075494,0.04619052,0.18054423,-0.021340067,0.011374426,-0.10094073,-0.1457253,-0.1457253,-0.10094073,0.133264,0.21028307,0.0779896,0.712305,577,1913.404047648112,2391.3824780782065,1937.2427829106648,2178.9869168400764,2152.393262863159,2058.1148498753705
4,9,-0.1055984,-0.3363371,0.1097458,-0.15638065,-0.087064035,-0.15722112,-0.12214258,0.6603547,-0.1055984,-0.3363371,0.1097458,-0.15638065,-0.12765731,-0.050744414,-0.19943872,-0.110729896,-0.110729896,-0.19943872,0.17811593,0.17512079,0.16847827,0.6231884,552,1913.404047648112,2391.3824780782065,2178.9869168400764,2420.731050769488,2152.393262863159,2299.858983804782
4,10,-0.12658055,-0.16021337,0.07424543,-0.044145,-0.053288557,-0.075058185,-0.06417337,0.6435498,-0.12658055,-0.16021337,0.07424543,-0.044145,-0.04337098,-0.032160036,-0.110312976,-0.07084949,-0.07084949,-0.110312976,0.17576282,0.17547497,0.112262525,0.6804836,579,1913.404047648112,2391.3824780782065,2420.731050769488,2662.4751846988993,2152.393262863159,2541.603117734194
4,11,-0.042817082,0.026909217,0.42727077,-0.061453886,-0.0072003924,0.1821549,0.08747725,0.6430591,-0.042817082,0.026909217,0.42727077,-0.061453886,0.1309087,0.1076666,-0.025787251,0.13712096,0.13712096,-0.025787251,0.23695962,0.10863025,0.38123515,0.4418052,842,1913.404047648112,2391.3824780782065,2662.4751846988993,2904.219318628311,2152.393262863159,2783.347251663605
4,12,-0.08177624,-0.072605476,0.43902552,-0.2028366,-0.03830444,0.07920803,0.020451795,0.6731139,-0.08177624,-0.072605476,0.43902552,-0.2028366,0.054527808,0.051470883,-0.11907278,0.09488127,0.09488127,-0.11907278,0.26622745,0.07247059,0.5105882,0.30588236,850,1913.404047648112,2391.3824780782065,2904.219318628311,3145.9634525577226,2152.393262863159,3025.0913855930166
4,13,-0.027155643,-0.01580126,0.42969444,-0.018210381,-0.03958441,0.22384799,0.092131786,0.6934707,-0.027155643,-0.01580126,0.42969444,-0.018210381,0.13189426,0.12810947,-0.020389097,0.12891251,0.12891251,-0.020389097,0.2024808,0.09755416,0.24737945,0.43186584,954,1913.404047648112,2391.3824780782065,3145.9634525577226,3387.707586487134,2152.393262863159,3266.8355195224285
4,14,-0.08213302,-0.17744848,0.6255233,0.0023094309,-0.035835575,0.21996123,0.09206282,0.6585239,-0.08213302,-0.17744848,0.6255233,0.0023094309,0.1501281,0.18189992,-0.08575736,0.12198062,0.12198062,-0.08575736,0.22334434,0.11309131,0.31573159,0.46754676,909,1913.404047648112,2391.3824780782065,3387.707586487134,3629.451720416546,2152.393262863159,3508.57965345184
4,15,-0.13452472,-0.23699306,0.3389876,-0.05854557,-0.078775994,0.033238124,-0.022768937,0.6725827,-0.13452472,-0.23699306,0.3389876,-0.05854557,0.01448299,0.04863911,-0.14335446,-0.0108433915,-0.0108433915,-0.14335446,0.19632865,0.09314555,0.2084507,0.44225353,710,1913.404047648112,2391.3824780782065,3629.451720416546,3871.1958543459573,2152.393262863159,3750.3237873812513
4,16,-0.14036559,-0.26693305,0.15592332,0.10786954,-0.090397,0.01864412,-0.03587644,0.6592695,-0.14036559,-0.26693305,0.15592332,0.10786954,-0.0010467286,0.041142426,-0.0998097,-0.08379177,-0.08379177,-0.0998097,0.12493264,0.16871706,0.04217926,0.6906854,569,1913.404047648112,2391.3824780782065,3871.1958543459573,4112.939988275369,2152.393262863159,3992.067921310663
4,17,-0.0729736,-0.14969078,0.41701874,0.20723028,-0.04619006,0.24698237,0.10039616,0.67026675,-0.0729736,-0.14969078,0.41701874,0.20723028,0.15818608,0.18375848,-0.005144697,0.06478478,0.06478478,-0.005144697,0.13973537,0.2157761,0.03816794,0.69007635,655,1913.404047648112,2391.3824780782065,4112.939988275369,4354.684122204781,2152.393262863159,4233.812055240074
4,18,0.038038544,0.036664832,0.52605546,0.13597813,0.0018523702,0.3665161,0.18418424,0.7762587,0.038038544,0.036664832,0.52605546,0.13597813,0.23289946,0.23335735,0.07022717,0.20025294,0.20025294,0.07022717,0.17923382,0.12543444,0.053317536,0.5414692,844,1913.404047648112,2391.3824780782065,4354.684122204781,4596.4282561341915,2152.393262863159,4475.556189169486
4,19,0.043585956,0.06662954,0.5910133,0.21512683,0.014302062,0.44387576,0.22908889,0.82104325,0.043585956,0.06662954,0.5910133,0.21512683,0.29092324,0.28324202,0.10844744,0.23374294,0.23374294,0.10844744,0.18055974,0.15532234,0.059970014,0.64017993,667,1913.404047648112,2391.3824780782065,4596.4282561341915,4838.172390063603,2152.393262863159,4717.300323098898
4,20,0.010982989,0.08056684,0.61078435,0.29039145,0.017585458,0.47877735,0.24818142,0.8325502,0.010982989,0.08056684,0.61078435,0.29039145,0.32724753,0.30405292,0.12731376,0.23411138,0.23411138,0.12731376,0.17372496,0.15391622,0.034153007,0.64071035,732,1913.404047648112,2391.3824780782065,4838.172390063603,5079.916523993015,2152.393262863159,4959.044457028309
4,21,0.055292785,0.020793904,0.7263359,0.1522398,-0.0195555,0.4968867,0.2386656,0.85248756,0.055292785,0.020793904,0.7263359,0.1522398,0.29978988,0.3112895,0.07610883,0.2674742,0.2674742,0.07610883,0.18977894,0.11166017,0.058517557,0.520156,769,1913.404047648112,2391.3824780782065,5079.916523993015,5321.660657922426,2152.393262863159,5200.788590957721
4,22,0.06251787,-0.12655215,0.79210615,0.34120783,0.06448187,0.47015795,0.2673199,0.87902796,0.06251787,-0.12655215,0.79210615,0.34120783,0.33558726,0.3986106,0.09239118,0.24269061,0.24269061,0.09239118,0.17366502,0.12935324,0.0049751243,0.5771144,201,1913.404047648112,2391.3824780782065,5321.660657922426,5563.404791851838,2152.393262863159,5442.532724887133
5,0,-0.13677047,-0.7789045,0.25139624,-0.77138275,-0.27036494,-0.44746578,-0.35891536,0.770326,-0.13677047,-0.7789045,0.25139624,-0.77138275,-0.43296367,-0.21891898,-0.5623526,-0.22142625,-0.22142625,-0.5623526,0.25336257,0.0019493178,0.32894737,0.014619883,684,2391.3824780782065,2869.360908508301,3.2897114753723145,245.03384540478388,2630.371693293254,124.1617784400781
5,1,-0.18445247,-0.7480198,0.35110018,-0.8200786,-0.3306578,-0.3700675,-0.35036266,0.73159283,-0.18445247,-0.7480198,0.35110018,-0.8200786,-0.40566605,-0.21781029,-0.5841836,-0.19379069,-0.19379069,-0.5841836,0.25476483,0.00027266532,0.39059305,0.0020449897,489,2391.3824780782065,2869.360908508301,245.03384540478388,486.77797933419544,2630.371693293254,365.90591236948967
5,2,-0.04622096,-0.23410814,0.1541003,-0.559766,-0.12497331,-0.21802408,-0.17149869,0.67958283,-0.04622096,-0.23410814,0.1541003,-0.559766,-0.21325794,-0.15062888,-0.28003168,-0.042076264,-0.042076264,-0.28003168,0.23428684,0.0356186,0.3534279,0.19148937,846,2391.3824780782065,2869.360908508301,486.77797933419544,728.522113263607,2630.371693293254,607.6500462989012
5,3,-0.0064928234,-0.21519214,0.45578942,0.016159484,0.060105532,0.06502644,0.06256598,0.64792657,-0.0064928234,-0.21519214,0.45578942,0.016159484,0.08558559,0.15515202,-0.06850849,0.07803482,0.07803482,-0.06850849,0.19254962,0.1313492,0.12648809,0.64880955,672,2391.3824780782065,2869.360908508301,728.522113263607,970.2662471930186,2630.371693293254,849.3941802283127
5,4,-0.020363048,-0.3099806,0.5356883,0.0045612464,0.009869279,0.09508367,0.05247647,0.6552883,-0.020363048,-0.3099806,0.5356883,0.0045612464,0.07675631,0.17329548,-0.108594134,0.06844821,0.06844821,-0.108594134,0.2012044,0.11043257,0.20737913,0.5368957,786,2391.3824780782065,2869.360908508301,970.2662471930186,1212.01038112243,2630.371693293254,1091.1383141577244
5,5,0.017314063,-0.21500199,0.39545813,0.012129224,-0.0023046597,0.10725436,0.052474853,0.6369169,0.017314063,-0.21500199,0.39545813,0.012129224,0.06419512,0.1416338,-0.061852902,0.06592339,0.06592339,-0.061852902,0.20420623,0.120061256,0.19142419,0.55130166,653,2391.3824780782065,2869.360908508301,1212.01038112243,1453.7545150518417,2630.371693293254,1332.8824480871358
5,6,-0.09490194,-0.36057818,0.37491733,-0.09890387,-0.020875245,-0.06885808,-0.044866666,0.64740807,-0.09490194,-0.36057818,0.37491733,-0.09890387,-0.028188238,0.0603705,-0.18479466,-0.026854262,-0.026854262,-0.18479466,0.19091544,0.13731344,0.15820895,0.52686566,670,2391.3824780782065,2869.360908508301,1453.7545150518417,1695.4986489812532,2630.371693293254,1574.6265820165474
5,7,-0.1318053,-0.32701027,-0.034804266,-0.066622876,-0.09359232,-0.18652906,-0.1400607,0.6476805,-0.1318053,-0.32701027,-0.034804266,-0.066622876,-0.14281249,-0.07774415,-0.17514616,-0.16453996,-0.16453996,-0.17514616,0.18655097,0.21373826,0.21041214,0.691974,461,2391.3824780782065,2869.360908508301,1695.4986489812532,1937.2427829106648,2630.371693293254,1816.370715945959
5,8,-0.08680485,-0.36945617,0.48889738,-0.08451476,-0.05310891,0.027169693,-0.012969608,0.6515669,-0.08680485,-0.36945617,0.48889738,-0.08451476,0.011642139,0.10585924,-0.1802586,0.010878776,0.010878776,-0.1802586,0.21457699,0.080033846,0.21954314,0.39593908,788,2391.3824780782065,2869.360908508301,1937.2427829106648,2178.9869168400764,2630.371693293254,2058.1148498753705
5,9,-0.07094268,-0.2588409,0.27858773,-0.011774196,-0.03863897,0.0071539492,-0.015742512,0.6537468,-0.07094268,-0.2588409,0.27858773,-0.011774196,0.002657544,0.06529028,-0.11385259,-0.017065285,-0.017065285,-0.11385259,0.18904682,0.14529046,0.14551607,0.6395939,591,2391.3824780782065,2869.360908508301,2178.9869168400764,2420.731050769488,2630.371693293254,2299.858983804782
5,10,-0.09218114,-0.18721366,0.37538752,-0.002972234,-0.018245708,0.06475595,0.023255121,0.6462933,-0.09218114,-0.18721366,0.37538752,-0.002972234,0.06173387,0.09341138,-0.09412234,0.031997573,0.031997573,-0.09412234,0.19101575,0.17072009,0.15164521,0.6380544,699,2391.3824780782065,2869.360908508301,2420.731050769488,2662.4751846988993,2630.371693293254,2541.603117734194
5,11,-0.107914746,-0.13940176,0.44946018,0.032765202,-0.022762116,0.14021654,0.058727212,0.650697,-0.107914746,-0.13940176,0.44946018,0.032765202,0.114274524,0.12477021,-0.0715171,0.06738122,0.06738122,-0.0715171,0.19758941,0.15187639,0.20927152,0.5682119,755,2391.3824780782065,2869.360908508301,2662.4751846988993,2904.219318628311,2630.371693293254,2783.347251663605
5,12,-0.013864532,0.19085132,0.52974993,-0.13832176,0.02306567,0.26114184,0.14210375,0.6784842,-0.013864532,0.19085132,0.52974993,-0.13832176,0.19409317,0.12585455,0.012888346,0.23557891,0.23557891,0.012888346,0.25507516,0.04713115,0.46106556,0.25307378,976,2391.3824780782065,2869.360908508301,2904.219318628311,3145.9634525577226,2630.371693293254,3025.0913855930166
5,13,0.05411758,0.27366868,0.50849754,-0.029615957,0.037736308,0.3655976,0.20166695,0.6974851,0.05411758,0.27366868,0.50849754,-0.029615957,0.25085008,0.17766638,0.0993901,0.27876124,0.27876124,0.0993901,0.22605182,0.096856646,0.31088084,0.40829015,965,2391.3824780782065,2869.360908508301,3145.9634525577226,3387.707586487134,2630.371693293254,3266.8355195224285
5,14,-0.06571094,-0.024562895,0.31256428,0.1124584,-0.023779761,0.19115418,0.083687216,0.68350595,-0.06571094,-0.024562895,0.31256428,0.1124584,0.1334866,0.11977057,0.0073948577,0.074096814,0.074096814,0.0073948577,0.17655432,0.17846443,0.125,0.6699438,712,2391.3824780782065,2869.360908508301,3387.707586487134,3629.451720416546,2630.371693293254,3508.57965345184
5,15,-0.09390187,-0.11309693,0.45425615,0.01595118,-0.051255602,0.18285987,0.065802135,0.68312836,-0.09390187,-0.11309693,0.45425615,0.01595118,0.11903681,0.12543516,-0.063682534,0.08241912,0.08241912,-0.063682534,0.20193896,0.07673268,0.19678217,0.40470296,808,2391.3824780782065,2869.360908508301,3629.451720416546,3871.1958543459573,2630.371693293254,3750.3237873812513
5,16,-0.10973553,-0.0639677,0.54369885,0.0143419495,-0.014792693,0.20696148,0.09608439,0.65886277,-0.10973553,-0.0639677,0.54369885,0.0143419495,0.16469103,0.14943509,-0.053120427,0.123331875,0.123331875,-0.053120427,0.2087711,0.084497996,0.25180724,0.35421687,830,2391.3824780782065,2869.360908508301,3871.1958543459573,4112.939988275369,2630.371693293254,3992.067921310663
5,17,-0.04377064,-0.12801802,0.58512014,0.15548299,-0.04823152,0.33263874,0.14220361,0.7154352,-0.04377064,-0.12801802,0.58512014,0.15548299,0.20419501,0.23227747,-0.0054352223,0.13777715,0.13777715,-0.0054352223,0.17018986,0.14534217,0.0794702,0.56688744,755,2391.3824780782065,2869.360908508301,4112.939988275369,4354.684122204781,2630.371693293254,4233.812055240074
5,18,0.0613451,0.15863691,0.6370741,0.087636076,0.007687113,0.464659,0.23617305,0.80725425,0.0613451,0.15863691,0.6370741,0.087636076,0.29444903,0.26201844,0.10253936,0.28568536,0.28568536,0.10253936,0.2041361,0.11376147,0.10550459,0.5091743,872,2391.3824780782065,2869.360908508301,4354.684122204781,4596.4282561341915,2630.371693293254,4475.556189169486
5,19,0.033013213,0.1525887,0.62210816,0.2555138,0.056369312,0.4752426,0.265806,0.85103756,0.033013213,0.1525887,0.62210816,0.2555138,0.34340358,0.30354506,0.14703856,0.26923668,0.26923668,0.14703856,0.16749501,0.16686627,0.029940119,0.6736527,668,2391.3824780782065,2869.360908508301,4596.4282561341915,4838.172390063603,2630.371693293254,4717.300323098898
5,20,0.03114099,0.1952826,0.6020281,0.18235205,0.03633263,0.4690692,0.25270092,0.8169097,0.03114099,0.1952826,0.6020281,0.18235205,0.32655424,0.27184036,0.13625854,0.27615052,0.27615052,0.13625854,0.16850747,0.15721394,0.032835823,0.6880597,670,2391.3824780782065,2869.360908508301,4838.172390063603,5079.916523993015,2630.371693293254,4959.044457028309
5,21,0.034456633,0.016255451,0.6793724,0.19563465,-0.027720919,0.49058044,0.23142979,0.8589134,0.034456633,0.016255451,0.6793724,0.19563465,0.2970875,0.30315453,0.082115576,0.24336149,0.24336149,0.082115576,0.17612176,0.13078056,0.02209131,0.57584685,679,2391.3824780782065,2869.360908508301,5079.916523993015,5321.660657922426,2630.371693293254,5200.788590957721
5,22,-0.027127301,-0.16831984,0.86008215,0.18929093,0.0018603128,0.42510268,0.2134815,0.8217474,-0.027127301,-0.16831984,0.86008215,0.18929093,0.29368445,0.3407486,-0.0020520713,0.22154503,0.22154503,-0.0020520713,0.19048037,0.09606988,0.013100437,0.47161573,229,2391.3824780782065,2869.360908508301,5321.660657922426,5563.404791851838,2630.371693293254,5442.532724887133
6,0,-0.14962098,-0.84897274,0.424845,-0.56948966,-0.2509863,-0.32063287,-0.2858096,0.70511395,-0.14962098,-0.84897274,0.424845,-0.56948966,-0.33120582,-0.09808853,-0.52269447,-0.19124958,-0.19124958,-0.52269447,0.27068913,0.006738132,0.50689125,0.050535988,653,2869.360908508301,3347.3393389383955,3.2897114753723145,245.03384540478388,3108.350123723348,124.1617784400781
6,1,-0.08971841,-0.63848233,0.08835863,-0.8920509,-0.34866253,-0.41728398,-0.38297325,0.7390261,-0.08971841,-0.63848233,0.08835863,-0.8920509,-0.48072487,-0.29780355,-0.5400839,-0.21328071,-0.21328071,-0.5400839,0.21817546,0.0075789476,0.16421053,0.056842104,475,2869.360908508301,3347.3393389383955,245.03384540478388,486.77797933419544,3108.350123723348,365.90591236948967
6,2,0.04429802,-0.077703565,0.3207817,-0.065351516,0.04146991,0.06954242,0.055506166,0.6344727,0.04429802,-0.077703565,0.3207817,-0.065351516,0.05924221,0.09990941,-0.03291902,0.09579206,0.09579206,-0.03291902,0.19406874,0.1283773,0.1438849,0.5539568,834,2869.360908508301,3347.3393389383955,486.77797933419544,728.522113263607,3108.350123723348,607.6500462989012
6,3,0.0046793157,-0.11706247,0.46814287,0.051004034,0.049801335,0.15358055,0.10169094,0.64851296,0.0046793157,-0.11706247,0.46814287,0.051004034,0.13402815,0.17460875,-0.020459708,0.11858657,0.11858657,-0.020459708,0.20195521,0.117829464,0.10852713,0.59043926,774,2869.360908508301,3347.3393389383955,728.522113263607,970.2662471930186,3108.350123723348,849.3941802283127
6,4,-0.011425573,-0.2375873,0.47418776,0.058260567,0.026958084,0.114759624,0.07085885,0.6702288,-0.011425573,-0.2375873,0.47418776,0.058260567,0.098287,0.17367424,-0.063584104,0.07505828,0.07505828,-0.063584104,0.18719175,0.15752463,0.081575245,0.6708861,711,2869.360908508301,3347.3393389383955,970.2662471930186,1212.01038112243,3108.350123723348,1091.1383141577244
6,5,-0.0071876813,-0.19309163,0.4518229,0.019888755,0.014506696,0.12120948,0.067858085,0.6492694,-0.0071876813,-0.19309163,0.4518229,0.019888755,0.09287334,0.15484133,-0.06013019,0.083847865,0.083847865,-0.06013019,0.19604938,0.13929333,0.11366539,0.62068963,783,2869.360908508301,3347.3393389383955,1212.01038112243,1453.7545150518417,3108.350123723348,1332.8824480871358
6,6,-0.051384028,-0.40575293,0.4692165,0.012981186,-0.018566264,0.031096622,0.0062651793,0.668882,-0.051384028,-0.40575293,0.4692165,0.012981186,0.025481584,0.14360455,-0.14805192,0.004026511,0.004026511,-0.14805192,0.19766119,0.11614193,0.113943025,0.54122937,667,2869.360908508301,3347.3393389383955,1453.7545150518417,1695.4986489812532,3108.350123723348,1574.6265820165474
6,7,-0.04291196,-0.43542984,0.37586963,0.05347217,-0.062424146,0.037924144,-0.012250002,0.66067487,-0.04291196,-0.43542984,0.37586963,0.05347217,-0.002029349,0.12880994,-0.1416232,-0.03415739,-0.03415739,-0.1416232,0.17991215,0.16716091,0.123558484,0.70016474,607,2869.360908508301,3347.3393389383955,1695.4986489812532,1937.2427829106648,3108.350123723348,1816.370715945959
6,8,-0.009019084,-0.32911673,0.37204003,0.07058393,-0.03343897,0.08568306,0.026122047,0.64839774,-0.009019084,-0.32911673,0.37204003,0.07058393,0.037835754,0.14453496,-0.08918396,0.011301419,0.011301419,-0.08918396,0.1726776,0.1693989,0.08032787,0.71311474,610,2869.360908508301,3347.3393389383955,1937.2427829106648,2178.9869168400764,3108.350123723348,2058.1148498753705
6,9,-0.008072559,-0.13886483,0.35565165,-0.095601544,-0.020824393,0.07738075,0.028278174,0.6745711,-0.008072559,-0.13886483,0.35565165,-0.095601544,0.04039509,0.08399252,-0.08084631,0.06957142,0.06957142,-0.08084631,0.21241379,0.08478162,0.20275863,0.44965518,725,2869.360908508301,3347.3393389383955,2178.9869168400764,2420.731050769488,3108.350123723348,2299.858983804782
6,10,-0.002086421,0.011986497,0.39635092,0.04937764,0.008400355,0.21941397,0.113907166,0.6812208,-0.002086421,0.011986497,0.39635092,0.04937764,0.1525717,0.14788072,0.01975924,0.135417,0.135417,0.01975924,0.18469036,0.12513661,0.094262294,0.5614754,732,2869.360908508301,3347.3393389383955,2420.731050769488,2662.4751846988993,3108.350123723348,2541.603117734194
6,11,-0.049296856,-0.06505202,0.55335927,0.018756676,0.012036973,0.21684656,0.11444177,0.6642752,-0.049296856,-0.06505202,0.55335927,0.018756676,0.16902132,0.17427303,-0.03186407,0.1463368,0.1463368,-0.03186407,0.2162169,0.1247583,0.18789408,0.5132409,793,2869.360908508301,3347.3393389383955,2662.4751846988993,2904.219318628311,3108.350123723348,2783.347251663605
6,12,-0.07937277,-0.055996124,0.43169618,-0.02222955,-0.030879598,0.16792847,0.06852443,0.6911437,-0.07937277,-0.055996124,0.43169618,-0.02222955,0.1178235,0.110031284,-0.052532814,0.09877577,0.09877577,-0.052532814,0.19928768,0.14319636,0.22054794,0.5630137,730,2869.360908508301,3347.3393389383955,2904.219318628311,3145.9634525577226,3108.350123723348,3025.0913855930166
6,13,-0.08868667,-0.12679219,0.29571342,0.19706511,-0.019265177,0.15791501,0.06932492,0.66730297,-0.08868667,-0.12679219,0.29571342,0.19706511,0.12199545,0.13469729,-0.0061379126,0.026744854,0.026744854,-0.0061379126,0.14331338,0.24311379,0.10778443,0.71407187,668,2869.360908508301,3347.3393389383955,3145.9634525577226,3387.707586487134,3108.350123723348,3266.8355195224285
6,14,-0.06147347,-0.06644246,0.4043597,0.13899381,-0.047499172,0.25521797,0.103859395,0.6916215,-0.06147347,-0.06644246,0.4043597,0.13899381,0.15897036,0.16062668,0.0036926281,0.092147924,0.092147924,0.0036926281,0.17298421,0.21130508,0.14339152,0.6583541,802,2869.360908508301,3347.3393389383955,3387.707586487134,3629.451720416546,3108.350123723348,3508.57965345184
6,15,-0.088452585,-0.07563031,0.5148112,0.071861446,-0.03357776,0.24487264,0.105647445,0.68362385,-0.088452585,-0.07563031,0.5148112,0.071861446,0.17034745,0.16607337,-0.03074048,0.116909444,0.116909444,-0.03074048,0.19196877,0.10785039,0.1565968,0.47965476,811,2869.360908508301,3347.3393389383955,3629.451720416546,3871.1958543459573,3108.350123723348,3750.3237873812513
6,16,-0.09974891,-0.18567385,0.4906436,0.18361911,-0.050523773,0.24494375,0.09720999,0.69872224,-0.09974891,-0.18567385,0.4906436,0.18361911,0.16286296,0.1915046,-0.033934545,0.06840695,0.06840695,-0.033934545,0.16844687,0.1756585,0.11444142,0.6553134,734,2869.360908508301,3347.3393389383955,3871.1958543459573,4112.939988275369,3108.350123723348,3992.067921310663
6,17,-0.02076209,-0.13688962,0.57846,0.19446363,-0.036216136,0.3438521,0.15381797,0.7203642,-0.02076209,-0.13688962,0.57846,0.19446363,0.21201132,0.25072053,0.012270638,0.14026943,0.14026943,0.012270638,0.16434738,0.13000521,0.035881434,0.55382216,641,2869.360908508301,3347.3393389383955,4112.939988275369,4354.684122204781,3108.350123723348,4233.812055240074
6,18,-0.042051774,-0.0026209913,0.7692081,0.1505751,-0.003691912,0.44124714,0.21877761,0.7734508,-0.042051774,-0.0026209913,0.7692081,0.1505751,0.30572075,0.29257715,0.03530078,0.24151179,0.24151179,0.03530078,0.19853283,0.07790648,0.17245817,0.3873874,777,2869.360908508301,3347.3393389383955,4354.684122204781,4596.4282561341915,3108.350123723348,4475.556189169486
6,19,0.060506422,0.22729528,0.6674432,0.23225462,0.06804961,0.52570015,0.29687488,0.8376087,0.060506422,0.22729528,0.6674432,0.23225462,0.37566435,0.3200681,0.1733521,0.31841496,0.31841496,0.1733521,0.18708213,0.15884058,0.060869563,0.6347826,690,2869.360908508301,3347.3393389383955,4596.4282561341915,4838.172390063603,3108.350123723348,4717.300323098898
6,20,0.068170965,0.16303048,0.74791414,0.2704133,0.04518951,0.57957494,0.31238222,0.8527129,0.068170965,0.16303048,0.74791414,0.2704133,0.39378598,0.36216614,0.16720492,0.32637188,0.32637188,0.16720492,0.1819173,0.14832118,0.06277372,0.5985401,685,2869.360908508301,3347.3393389383955,4838.172390063603,5079.916523993015,3108.350123723348,4959.044457028309
6,21,0.05001355,0.055342276,0.91031814,0.16989724,0.011099715,0.5816859,0.2963928,0.87191105,0.05001355,0.055342276,0.91031814,0.16989724,0.37851924,0.376743,0.09175102,0.338558,0.338558,0.09175102,0.21208446,0.07259659,0.106469005,0.34366578,742,2869.360908508301,3347.3393389383955,5079.916523993015,5321.660657922426,3108.350123723348,5200.788590957721
6,22,0.048805714,0.006337137,0.8152165,0.1918033,0.027422348,0.50365895,0.26554066,0.8890059,0.048805714,0.006337137,0.8152165,0.1918033,0.33778563,0.35194182,0.082315385,0.29011977,0.29011977,0.082315385,0.19196263,0.13333334,0.06542056,0.47663552,214,2869.360908508301,3347.3393389383955,5321.660657922426,5563.404791851838,3108.350123723348,5442.532724887133
7,0,-0.085499376,-0.5262156,0.13654464,-0.52386826,-0.297665,-0.20185427,-0.24975966,0.64865196,-0.085499376,-0.5262156,0.13654464,-0.52386826,-0.30451307,-0.15760767,-0.37852773,-0.1583901,-0.1583901,-0.37852773,0.2023766,0.021328459,0.22577697,0.15173675,1094,3347.3393389383955,3825.3177693684897,3.2897114753723145,245.03384540478388,3586.3285541534424,124.1617784400781
7,1,-0.11491536,-0.6038168,0.23605219,-0.68217254,-0.3319877,-0.2504385,-0.29121312,0.7168145,-0.11491536,-0.6038168,0.23605219,-0.68217254,-0.349979,-0.1870119,-0.46696824,-0.16089332,-0.16089332,-0.46696824,0.23751548,0.011494253,0.27055702,0.08355438,754,3347.3393389383955,3825.3177693684897,245.03384540478388,486.77797933419544,3586.3285541534424,365.90591236948967
7,2,0.08024509,-0.08366738,0.5256796,0.04190477,0.04229571,0.23978531,0.14104052,0.65863687,0.08024509,-0.08366738,0.5256796,0.04190477,0.16130565,0.21594316,0.012827493,0.17408577,0.17408577,0.012827493,0.20926481,0.12019986,0.16381156,0.5235546,934,3347.3393389383955,3825.3177693684897,486.77797933419544,728.522113263607,3586.3285541534424,607.6500462989012
7,3,0.014240645,-0.35554332,0.5402577,0.0628563,0.0048073516,0.12609829,0.06545282,0.6759637,0.014240645,-0.35554332,0.5402577,0.0628563,0.082523555,0.20578487,-0.092815466,0.066318326,0.066318326,-0.092815466,0.20643847,0.11638142,0.17481662,0.57457215,818,3347.3393389383955,3825.3177693684897,728.522113263607,970.2662471930186,3586.3285541534424,849.3941802283127
7,4,0.0069217575,-0.45196894,0.590117,0.11287051,-0.02265868,0.15162884,0.06448508,0.6843184,0.0069217575,-0.45196894,0.590117,0.11287051,0.08367285,0.23663642,-0.110725544,0.048356604,0.048356604,-0.110725544,0.18718463,0.15338346,0.0764411,0.67919797,798,3347.3393389383955,3825.3177693684897,970.2662471930186,1212.01038112243,3586.3285541534424,1091.1383141577244
7,5,-0.03836183,-0.2954394,0.40431187,0.18922174,-0.030163208,0.16002943,0.06493311,0.68195504,-0.03836183,-0.2954394,0.40431187,0.18922174,0.09936474,0.18505727,-0.04819315,0.023503559,0.023503559,-0.04819315,0.16708334,0.22063494,0.05952381,0.80803573,672,3347.3393389383955,3825.3177693684897,1212.01038112243,1453.7545150518417,3586.3285541534424,1332.8824480871358
7,6,-0.05382968,-0.34192824,0.51180834,0.032145336,-0.047214054,0.121311925,0.037048932,0.6696105,-0.05382968,-0.34192824,0.51180834,0.032145336,0.067341805,0.16337466,-0.1212042,0.038683467,0.038683467,-0.1212042,0.20460165,0.09723578,0.1695122,0.48414633,820,3347.3393389383955,3825.3177693684897,1453.7545150518417,1695.4986489812532,3586.3285541534424,1574.6265820165474
7,7,0.034524683,-0.28540707,0.45532456,0.104340225,-0.037472166,0.19186336,0.07719559,0.668882,0.034524683,-0.28540707,0.45532456,0.104340225,0.09141924,0.19806314,-0.048847385,0.06814738,0.06814738,-0.048847385,0.18513958,0.13448277,0.13669951,0.5825123,812,3347.3393389383955,3825.3177693684897,1695.4986489812532,1937.2427829106648,3586.3285541534424,1816.370715945959
7,8,0.09458508,-0.02746121,0.51642317,0.050853163,0.018111989,0.29908812,0.15860006,0.6948352,0.09458508,-0.02746121,0.51642317,0.050853163,0.17993838,0.22062048,0.03932568,0.19451569,0.19451569,0.03932568,0.20195404,0.09992337,0.15862069,0.5264368,870,3347.3393389383955,3825.3177693684897,1937.2427829106648,2178.9869168400764,3586.3285541534424,2058.1148498753705
7,9,0.12280838,0.07869666,0.4254497,-0.10030506,0.02134784,0.241977,0.13166241,0.7133881,0.12280838,0.07869666,0.4254497,-0.10030506,0.13461377,0.14931767,0.033733327,0.20898493,0.20898493,0.033733327,0.2020553,0.07339312,0.13565022,0.40470853,892,3347.3393389383955,3825.3177693684897,2178.9869168400764,2420.731050769488,3586.3285541534424,2299.858983804782
7,10,-0.052501865,-0.16952181,0.5298543,0.14100938,0.011950081,0.21246992,0.112210006,0.65530217,-0.052501865,-0.16952181,0.5298543,0.14100938,0.16711396,0.2061206,-0.02700476,0.102610216,0.102610216,-0.02700476,0.19165808,0.15704468,0.14175257,0.60695875,776,3347.3393389383955,3825.3177693684897,2420.731050769488,2662.4751846988993,3586.3285541534424,2541.603117734194
7,11,-0.053540476,-0.22877629,0.51757973,0.2253735,0.009723636,0.22059461,0.115159124,0.7037457,-0.053540476,-0.22877629,0.51757973,0.2253735,0.1713923,0.22980426,-0.018981082,0.07842098,0.07842098,-0.018981082,0.1836944,0.18210362,0.11930926,0.66248035,637,3347.3393389383955,3825.3177693684897,2662.4751846988993,2904.219318628311,3586.3285541534424,2783.347251663605
7,12,7.206522e-05,-0.082615085,0.7344761,0.06882576,0.037314374,0.32306504,0.1801897,0.6819349,7.206522e-05,-0.082615085,0.7344761,0.06882576,0.24022892,0.2677913,-0.004572423,0.21731101,0.21731101,-0.004572423,0.20331353,0.11129608,0.12722948,0.47800237,841,3347.3393389383955,3825.3177693684897,2904.219318628311,3145.9634525577226,3586.3285541534424,3025.0913855930166
7,13,-0.048239764,-0.09203689,0.46299198,0.09869706,-0.014063606,0.2247698,0.105353095,0.6829459,-0.048239764,-0.09203689,0.46299198,0.09869706,0.15655072,0.17114975,-0.013859866,0.10757177,0.10757177,-0.013859866,0.17811081,0.18056314,0.08583106,0.6444142,734,3347.3393389383955,3825.3177693684897,3145.9634525577226,3387.707586487134,3586.3285541534424,3266.8355195224285
7,14,-0.1204592,-0.2819212,0.37487957,0.18601775,-0.069712475,0.14897093,0.039629225,0.6596923,-0.1204592,-0.2819212,0.37487957,0.18601775,0.09299203,0.1468127,-0.07212089,-0.009166951,-0.009166951,-0.07212089,0.15931109,0.2282989,0.07154213,0.65500796,629,3347.3393389383955,3825.3177693684897,3387.707586487134,3629.451720416546,3586.3285541534424,3508.57965345184
7,15,-0.1005366,-0.23399207,0.50066805,0.1993283,-0.017941043,0.20067489,0.091366924,0.6729242,-0.1005366,-0.23399207,0.50066805,0.1993283,0.15533477,0.19981992,-0.04506678,0.05537979,0.05537979,-0.04506678,0.15492538,0.23880596,0.09618574,0.694859,603,3347.3393389383955,3825.3177693684897,3629.451720416546,3871.1958543459573,3586.3285541534424,3750.3237873812513
7,16,-0.12506822,-0.3098291,0.73669565,0.21248534,-0.027375313,0.28451717,0.12857091,0.67919445,-0.12506822,-0.3098291,0.73669565,0.21248534,0.2131173,0.27470425,-0.07413732,0.10059945,0.10059945,-0.07413732,0.18089949,0.13174604,0.103174604,0.49338624,756,3347.3393389383955,3825.3177693684897,3871.1958543459573,4112.939988275369,3586.3285541534424,3992.067921310663
7,17,-0.077355094,-0.3200013,0.7029961,0.23852386,-0.062066678,0.3341484,0.13604088,0.72866696,-0.077355094,-0.3200013,0.7029961,0.23852386,0.20717286,0.28805494,-0.052944183,0.10187987,0.10187987,-0.052944183,0.17068914,0.11046453,0.02603369,0.49157733,653,3347.3393389383955,3825.3177693684897,4112.939988275369,4354.684122204781,3586.3285541534424,4233.812055240074
7,18,0.024676533,-0.03045616,0.8014216,0.18162835,0.020511307,0.46812382,0.24431758,0.79820305,0.024676533,-0.03045616,0.8014216,0.18162835,0.31753126,0.3359088,0.058616247,0.26521397,0.26521397,0.058616247,0.18937564,0.066465266,0.051359516,0.3791541,662,3347.3393389383955,3825.3177693684897,4354.684122204781,4596.4282561341915,3586.3285541534424,4475.556189169486
7,19,0.115792155,0.12416335,0.7802948,0.12794857,0.043704823,0.5303946,0.2870497,0.8301649,0.115792155,0.12416335,0.7802948,0.12794857,0.34413555,0.34134516,0.122634694,0.34008345,0.34008345,0.122634694,0.19755203,0.09057528,0.09669523,0.3977968,817,3347.3393389383955,3825.3177693684897,4596.4282561341915,4838.172390063603,3586.3285541534424,4717.300323098898
7,20,0.16832027,0.14224549,0.7218003,0.25074565,0.044860426,0.5966954,0.32077792,0.8800054,0.16832027,0.14224549,0.7218003,0.25074565,0.37159714,0.38028872,0.18710381,0.34412202,0.34412202,0.18710381,0.175275,0.14216667,0.04625,0.5125,800,3347.3393389383955,3825.3177693684897,4838.172390063603,5079.916523993015,3586.3285541534424,4959.044457028309
7,21,0.05317121,0.119544216,0.8257987,0.19819988,0.012488318,0.58586866,0.29917848,0.8950864,0.05317121,0.119544216,0.8257987,0.19819988,0.3811809,0.3590566,0.123638436,0.33283806,0.33283806,0.123638436,0.19650996,0.068615,0.09402795,0.34561625,787,3347.3393389383955,3825.3177693684897,5079.916523993015,5321.660657922426,3586.3285541534424,5200.788590957721
7,22,0.008588855,0.04382493,1.0776961,0.22706123,0.09536909,0.5832164,0.33929276,0.8111171,0.008588855,0.04382493,1.0776961,0.22706123,0.44952744,0.43778205,0.09315834,0.3767033,0.3767033,0.09315834,0.21948981,0.043537416,0.045918368,0.21428572,196,3347.3393389383955,3825.3177693684897,5321.660657922426,5563.404791851838,3586.3285541534424,5442.532724887133
8,0,-0.12470097,-0.6454687,0.18217748,-0.6075614,-0.31042135,-0.28735542,-0.2988884,0.6690429,-0.12470097,-0.6454687,0.18217748,-0.6075614,-0.35695088,-0.18336163,-0.45924369,-0.1959974,-0.1959974,-0.45924369,0.22110683,0.008236809,0.25225225,0.06177606,777,3825.3177693684897,4303.296199798584,3.2897114753723145,245.03384540478388,4064.306984583537,124.1617784400781
8,1,-0.17701797,-0.7945428,0.32194015,-0.7831974,-0.42761153,-0.2887975,-0.3582045,0.7390823,-0.17701797,-0.7945428,0.32194015,-0.7831974,-0.41860002,-0.2127584,-0.58491945,-0.2165402,-0.2165402,-0.58491945,0.23876826,0.014984128,0.25142857,0.108571425,525,3825.3177693684897,4303.296199798584,245.03384540478388,486.77797933419544,4064.306984583537,365.90591236948967
8,2,0.030119032,-0.04925305,0.19358471,-0.43316075,-0.114221506,-0.015133516,-0.064677514,0.66012675,0.030119032,-0.04925305,0.19358471,-0.43316075,-0.09627636,-0.069818996,-0.15076491,0.058150228,0.058150228,-0.15076491,0.26942858,0.031836737,0.50102043,0.20204082,980,3825.3177693684897,4303.296199798584,486.77797933419544,728.522113263607,4064.306984583537,607.6500462989012
8,3,0.09821482,0.11097651,0.21227318,-0.29245538,-0.06334307,0.12784764,0.032252286,0.6891564,0.09821482,0.11097651,0.21227318,-0.29245538,0.010264772,0.0060108798,-0.02775468,0.14048816,0.14048816,-0.02775468,0.24488473,0.04155992,0.39709648,0.22630231,1171,3825.3177693684897,4303.296199798584,728.522113263607,970.2662471930186,4064.306984583537,849.3941802283127
8,4,0.15552373,-0.03179089,0.31008232,-0.045953874,0.011443539,0.18248712,0.09696532,0.6769119,0.15552373,-0.03179089,0.31008232,-0.045953874,0.07744585,0.13988405,0.025926325,0.14460504,0.14460504,0.025926325,0.19213992,0.09190673,0.11625514,0.4557613,972,3825.3177693684897,4303.296199798584,970.2662471930186,1212.01038112243,4064.306984583537,1091.1383141577244
8,5,0.017729636,-0.16764683,0.46080866,0.09187922,0.02396269,0.17742264,0.10069267,0.65636426,0.017729636,-0.16764683,0.46080866,0.09187922,0.12834701,0.19013916,-0.019345993,0.10363049,0.10363049,-0.019345993,0.19372645,0.11600482,0.12274368,0.58965105,831,3825.3177693684897,4303.296199798584,1212.01038112243,1453.7545150518417,4064.306984583537,1332.8824480871358
8,6,0.04879739,-0.24675773,0.4679328,-0.0030683577,-0.025193041,0.1586451,0.06672602,0.667342,0.04879739,-0.24675773,0.4679328,-0.0030683577,0.07270222,0.1712206,-0.06700957,0.08999081,0.08999081,-0.06700957,0.20694105,0.10352244,0.18353726,0.5005562,899,3825.3177693684897,4303.296199798584,1453.7545150518417,1695.4986489812532,4064.306984583537,1574.6265820165474
8,7,0.08368919,-0.23607635,0.40760648,0.059242602,-0.05096291,0.20819385,0.07861547,0.68781227,0.08368919,-0.23607635,0.40760648,0.059242602,0.076924235,0.18351275,-0.031048186,0.085073106,0.085073106,-0.031048186,0.18349306,0.12333334,0.078125,0.57916665,960,3825.3177693684897,4303.296199798584,1695.4986489812532,1937.2427829106648,4064.306984583537,1816.370715945959
8,8,0.08293271,-0.12316116,0.5505467,0.03082873,-0.0423853,0.31295878,0.13528675,0.73036677,0.08293271,-0.12316116,0.5505467,0.03082873,0.1527381,0.22143605,-0.0031332432,0.17010608,0.17010608,-0.0031332432,0.19756855,0.10216451,0.084415585,0.52056277,924,3825.3177693684897,4303.296199798584,1937.2427829106648,2178.9869168400764,4064.306984583537,2058.1148498753705
8,9,0.09495755,-0.31186777,0.5448097,0.061318725,-0.060623065,0.2552322,0.09730455,0.72948116,0.09495755,-0.31186777,0.5448097,0.061318725,0.098086886,0.23369533,-0.05186383,0.10929983,0.10929983,-0.05186383,0.18528245,0.10385336,0.08417509,0.48933783,891,3825.3177693684897,4303.296199798584,2178.9869168400764,2420.731050769488,4064.306984583537,2299.858983804782
8,10,-0.029415214,-0.33947358,0.63199157,0.12533042,-0.06618098,0.26039755,0.0971083,0.7150298,-0.029415214,-0.33947358,0.63199157,0.12533042,0.1392828,0.2426356,-0.08118612,0.08770092,0.08770092,-0.08118612,0.1946015,0.15041833,0.12549537,0.59313077,757,3825.3177693684897,4303.296199798584,2420.731050769488,2662.4751846988993,4064.306984583537,2541.603117734194
8,11,-0.019891737,-0.31665435,0.7035785,0.28238782,-0.04139634,0.36610642,0.16235504,0.75609475,-0.019891737,-0.31665435,0.7035785,0.28238782,0.22310397,0.32202485,-0.018052751,0.122344114,0.122344114,-0.018052751,0.17342344,0.19333333,0.045945946,0.74594593,740,3825.3177693684897,4303.296199798584,2662.4751846988993,2904.219318628311,4064.306984583537,2783.347251663605
8,12,0.0059568896,-0.17632158,0.64689654,0.16137262,0.0074010896,0.31155115,0.15947612,0.7292521,0.0059568896,-0.17632158,0.64689654,0.16137262,0.21064919,0.27140868,-0.0029973611,0.15884395,0.15884395,-0.0029973611,0.18827681,0.15287201,0.10583446,0.5861601,737,3825.3177693684897,4303.296199798584,2904.219318628311,3145.9634525577226,4064.306984583537,3025.0913855930166
8,13,-0.08509988,-0.3320432,0.61879945,0.23300381,-0.029235495,0.24656558,0.10866504,0.6840053,-0.08509988,-0.3320432,0.61879945,0.23300381,0.17325334,0.2555678,-0.061379753,0.06721878,0.06721878,-0.061379753,0.16165584,0.18463205,0.0698052,0.6720779,616,3825.3177693684897,4303.296199798584,3145.9634525577226,3387.707586487134,4064.306984583537,3266.8355195224285
8,14,-0.08210249,-0.24156575,0.50751156,0.32554588,-0.02251328,0.2772079,0.1273473,0.682078,-0.08210249,-0.24156575,0.50751156,0.32554588,0.19716391,0.25031832,0.0006258872,0.061281115,0.061281115,0.0006258872,0.14241399,0.23461738,0.041602466,0.7966102,649,3825.3177693684897,4303.296199798584,3387.707586487134,3629.451720416546,4064.306984583537,3508.57965345184
8,15,-0.12228999,-0.4007313,0.553878,0.3066933,-0.071095325,0.23987035,0.08438751,0.7033716,-0.12228999,-0.4007313,0.553878,0.3066933,0.15328,0.24609378,-0.07210932,0.010285575,0.010285575,-0.07210932,0.14300202,0.21506025,0.05120482,0.6641566,664,3825.3177693684897,4303.296199798584,3629.451720416546,3871.1958543459573,4064.306984583537,3750.3237873812513
8,16,-0.056836616,-0.3446367,0.7782245,0.26927152,-0.036866914,0.35987827,0.16150568,0.7101343,-0.056836616,-0.3446367,0.7782245,0.26927152,0.23428644,0.3302198,-0.04406726,0.12558372,0.12558372,-0.04406726,0.17036112,0.090925924,0.04027778,0.38472223,720,3825.3177693684897,4303.296199798584,3871.1958543459573,4112.939988275369,4064.306984583537,3992.067921310663
8,17,-0.062246203,-0.38491887,0.87274873,0.32644024,-0.05516903,0.43118098,0.18800598,0.7609288,-0.062246203,-0.38491887,0.87274873,0.32644024,0.27142337,0.37898093,-0.04024161,0.14186123,0.14186123,-0.04024161,0.16647483,0.111654684,0.010071943,0.4964029,695,3825.3177693684897,4303.296199798584,4112.939988275369,4354.684122204781,4064.306984583537,4233.812055240074
8,18,-0.022321448,-0.27548638,0.8023254,0.30038068,-0.038556114,0.44100526,0.20122458,0.78451633,-0.022321448,-0.27548638,0.8023254,0.30038068,0.2757399,0.36012822,0.000857606,0.16817254,0.16817254,0.000857606,0.1671456,0.103639856,0.031609196,0.46551725,696,3825.3177693684897,4303.296199798584,4354.684122204781,4596.4282561341915,4064.306984583537,4475.556189169486
8,19,0.14758563,0.15143454,0.8072628,0.31892043,0.07188909,0.6407126,0.35630086,0.8818952,0.14758563,0.15143454,0.8072628,0.31892043,0.42587256,0.4245896,0.20598021,0.368761,0.368761,0.20598021,0.17173399,0.10983273,0.034271725,0.5116279,817,3825.3177693684897,4303.296199798584,4596.4282561341915,4838.172390063603,4064.306984583537,4717.300323098898
8,20,0.18856525,0.19942422,0.73878056,0.19444296,0.02097805,0.6396284,0.33030325,0.90157837,0.18856525,0.19942422,0.73878056,0.19444296,0.37754926,0.37392956,0.19414416,0.37559,0.37559,0.19414416,0.17566808,0.07088608,0.039029535,0.35126582,948,3825.3177693684897,4303.296199798584,4838.172390063603,5079.916523993015,4064.306984583537,4959.044457028309
8,21,0.16941829,0.14859736,0.837241,0.23321192,0.036971726,0.65726256,0.34711713,0.92982906,0.16941829,0.14859736,0.837241,0.23321192,0.40635008,0.41329038,0.18374251,0.38508555,0.38508555,0.18374251,0.18817016,0.058525853,0.04730473,0.30253026,909,3825.3177693684897,4303.296199798584,5079.916523993015,5321.660657922426,4064.306984583537,5200.788590957721
8,22,0.14043786,0.026017973,0.91168225,0.27288815,0.031934306,0.6435788,0.33775654,0.90831316,0.14043786,0.026017973,0.91168225,0.27288815,0.40352947,0.44166943,0.14644799,0.35937938,0.35937938,0.14644799,0.19223078,0.04769231,0.0038461538,0.30384615,260,3825.3177693684897,4303.296199798584,5321.660657922426,5563.404791851838,4064.306984583537,5442.532724887133
9,0,-0.09328304,-0.648778,0.13607115,-0.5525347,-0.36552086,-0.21374144,-0.28963113,0.6746234,-0.09328304,-0.648778,0.13607115,-0.5525347,-0.35508052,-0.16991553,-0.4315319,-0.20199664,-0.20199664,-0.4315319,0.2030973,0.026466383,0.17703862,0.17381974,932,4303.296199798584,4781.274630228679,3.2897114753723145,245.03384540478388,4542.285415013632,124.1617784400781
9,1,-0.10522982,-0.6102885,0.19370247,-0.54607964,-0.3604277,-0.17352004,-0.26697388,0.67981225,-0.10522982,-0.6102885,0.19370247,-0.54607964,-0.32088855,-0.15253565,-0.42053264,-0.17393863,-0.17393863,-0.42053264,0.21908624,0.031142194,0.23076923,0.1958042,715,4303.296199798584,4781.274630228679,245.03384540478388,486.77797933419544,4542.285415013632,365.90591236948967
9,2,-0.13612415,-0.79780954,0.3885741,-0.4412892,-0.32740986,-0.16591454,-0.24666218,0.6942049,-0.13612415,-0.79780954,0.3885741,-0.4412892,-0.2835082,-0.06294641,-0.4584076,-0.18178654,-0.18178654,-0.4584076,0.23236579,0.026194692,0.25663716,0.16637169,565,4303.296199798584,4781.274630228679,486.77797933419544,728.522113263607,4542.285415013632,607.6500462989012
9,3,-0.11004466,-0.35906166,0.03718216,-0.62809265,-0.2738694,-0.25613898,-0.26500422,0.70014304,-0.11004466,-0.35906166,0.03718216,-0.62809265,-0.3166574,-0.2336517,-0.36573297,-0.14397472,-0.14397472,-0.36573297,0.22479361,0.030714603,0.3195739,0.16644473,751,4303.296199798584,4781.274630228679,728.522113263607,970.2662471930186,4542.285415013632,849.3941802283127
9,4,-0.011837617,0.026767183,0.013221019,-0.54283,-0.167568,-0.089771725,-0.12866986,0.6907828,-0.011837617,0.026767183,0.013221019,-0.54283,-0.16761394,-0.18048221,-0.17596681,0.009383528,0.009383528,-0.17596681,0.27508545,0.022242935,0.5051258,0.14259087,1073,4303.296199798584,4781.274630228679,970.2662471930186,1212.01038112243,4542.285415013632,1091.1383141577244
9,5,0.060205534,0.09298608,-0.099834986,-0.4892099,-0.2392535,0.02132689,-0.10896332,0.7100674,0.060205534,0.09298608,-0.099834986,-0.4892099,-0.16535293,-0.17627978,-0.11200609,0.017785542,0.017785542,-0.11200609,0.23257478,0.020192308,0.32932693,0.125,1248,4303.296199798584,4781.274630228679,1212.01038112243,1453.7545150518417,4542.285415013632,1332.8824480871358
9,6,0.09715763,0.111030966,-0.07866946,-0.49107614,-0.1790326,-0.0017459107,-0.09038926,0.7227826,0.09715763,0.111030966,-0.07866946,-0.49107614,-0.15290488,-0.15752932,-0.09429586,0.043173045,0.043173045,-0.09429586,0.24443635,0.024684161,0.39067057,0.15087463,1372,4303.296199798584,4781.274630228679,1453.7545150518417,1695.4986489812532,4542.285415013632,1574.6265820165474
9,7,0.09778577,0.27200213,0.050914343,-0.3361773,-0.09229302,0.13455547,0.021131234,0.69502383,0.09778577,0.27200213,0.050914343,-0.3361773,-0.004420275,-0.062492393,0.011203533,0.14023407,0.14023407,0.011203533,0.25761357,0.030998206,0.4426482,0.19014627,1299,4303.296199798584,4781.274630228679,1695.4986489812532,1937.2427829106648,4542.285415013632,1816.370715945959
9,8,0.14986782,0.029720431,0.27945203,-0.0676812,-0.10861228,0.3042918,0.097839765,0.761138,0.14986782,0.029720431,0.27945203,-0.0676812,0.080497086,0.12054621,0.03730235,0.15301342,0.15301342,0.03730235,0.19316335,0.08010625,0.13147411,0.37928286,1255,4303.296199798584,4781.274630228679,1937.2427829106648,2178.9869168400764,4542.285415013632,2058.1148498753705
9,9,0.11893196,0.069955945,0.24926327,-0.08294381,-0.085628085,0.26323175,0.08880184,0.719927,0.11893196,0.069955945,0.24926327,-0.08294381,0.07875847,0.0950838,0.035314698,0.1460504,0.1460504,0.035314698,0.19397889,0.09472097,0.13574661,0.45791855,1105,4303.296199798584,4781.274630228679,2178.9869168400764,2420.731050769488,4542.285415013632,2299.858983804782
9,10,0.09412943,-0.077343576,0.42338023,0.043053005,-0.08613289,0.32774243,0.12080477,0.7459505,0.09412943,-0.077343576,0.42338023,0.043053005,0.12969656,0.18685423,0.019946283,0.14672203,0.14672203,0.019946283,0.18387415,0.11406097,0.108161256,0.5162242,1017,4303.296199798584,4781.274630228679,2420.731050769488,2662.4751846988993,4542.285415013632,2541.603117734194
9,11,0.07988777,-0.012515884,0.5569648,0.17232053,-0.03078015,0.42910877,0.19916432,0.7597193,0.07988777,-0.012515884,0.5569648,0.17232053,0.23892316,0.26972437,0.07989748,0.20811224,0.20811224,0.07989748,0.17263319,0.14079148,0.067351595,0.6164383,876,4303.296199798584,4781.274630228679,2662.4751846988993,2904.219318628311,4542.285415013632,2783.347251663605
9,12,-0.017579006,-0.1833935,0.60510755,0.18645614,-0.04108706,0.33638266,0.1476478,0.74926066,-0.017579006,-0.1833935,0.60510755,0.18645614,0.2027234,0.2579949,-0.0048387866,0.13471168,0.13471168,-0.0048387866,0.17602274,0.14943182,0.06534091,0.65482956,704,4303.296199798584,4781.274630228679,2904.219318628311,3145.9634525577226,4542.285415013632,3025.0913855930166
9,13,-0.031492174,-0.29552695,0.77528685,0.28273997,-0.040180817,0.40568468,0.18275194,0.73798025,-0.031492174,-0.29552695,0.77528685,0.28273997,0.25416666,0.34217823,-0.014759716,0.1494226,0.1494226,-0.014759716,0.17483652,0.13665202,0.020497805,0.5783309,683,4303.296199798584,4781.274630228679,3145.9634525577226,3387.707586487134,4542.285415013632,3266.8355195224285
9,14,-0.013937203,-0.3439749,0.7532507,0.305933,-0.090353094,0.4409889,0.1753179,0.8049368,-0.013937203,-0.3439749,0.7532507,0.305933,0.23840293,0.3484155,-0.017326368,0.13177952,0.13177952,-0.017326368,0.15947859,0.12495345,0.030726258,0.50418997,716,4303.296199798584,4781.274630228679,3387.707586487134,3629.451720416546,4542.285415013632,3508.57965345184
9,15,-0.038875144,-0.366968,0.83599716,0.30093345,-0.049811587,0.4153553,0.18277186,0.76186377,-0.038875144,-0.366968,0.83599716,0.30093345,0.25665417,0.36601847,-0.034969904,0.14338465,0.14338465,-0.034969904,0.1748502,0.09700376,0.029494382,0.5042135,712,4303.296199798584,4781.274630228679,3629.451720416546,3871.1958543459573,4542.285415013632,3750.3237873812513
9,16,0.010498238,-0.36572492,0.86103094,0.33312973,-0.06645986,0.48592684,0.2097335,0.8224968,0.010498238,-0.36572492,0.86103094,0.33312973,0.27614522,0.40155295,-0.0073656533,0.16860141,0.16860141,-0.0073656533,0.16213931,0.1106136,0.008706467,0.5062189,804,4303.296199798584,4781.274630228679,3871.1958543459573,4112.939988275369,4542.285415013632,3992.067921310663
9,17,0.012186208,-0.34004408,0.9208589,0.38545677,-0.05031922,0.53954816,0.24461445,0.8393909,0.012186208,-0.34004408,0.9208589,0.38545677,0.32209054,0.43950063,0.019199632,0.19766703,0.19766703,0.019199632,0.16517617,0.08346884,0.0067750677,0.41734418,738,4303.296199798584,4781.274630228679,4112.939988275369,4354.684122204781,4542.285415013632,4233.812055240074
9,18,0.051728174,-0.22986092,0.859647,0.2681283,-0.051920705,0.5267419,0.23741063,0.82576346,0.051728174,-0.22986092,0.859647,0.2681283,0.29930478,0.39316782,0.029998515,0.2271714,0.2271714,0.029998515,0.1815093,0.04110732,0.04209329,0.2320819,879,4303.296199798584,4781.274630228679,4354.684122204781,4596.4282561341915,4542.285415013632,4475.556189169486
9,19,0.09316709,0.012034373,0.77332264,0.16500081,-0.06684034,0.58860284,0.26088122,0.90481645,0.09316709,0.012034373,0.77332264,0.16500081,0.31678593,0.34383017,0.090067424,0.29284135,0.29284135,0.090067424,0.19250704,0.033302035,0.065727696,0.19530517,1065,4303.296199798584,4781.274630228679,4596.4282561341915,4838.172390063603,4542.285415013632,4717.300323098898
9,20,0.23514362,0.4104048,0.60151464,-0.011228965,-0.11290086,0.73081785,0.30895853,1.0187194,0.23514362,0.4104048,0.60151464,-0.011228965,0.33356348,0.2751431,0.21143982,0.41568768,0.41568768,0.21143982,0.20739578,0.019297099,0.11132941,0.13883431,1527,4303.296199798584,4781.274630228679,4838.172390063603,5079.916523993015,4542.285415013632,4959.044457028309
9,21,0.17590651,0.3341586,0.62560534,-0.07274061,-0.145964,0.6774289,0.26573247,1.0135074,0.17590651,0.3341586,0.62560534,-0.07274061,0.29567444,0.24292374,0.14577484,0.3785568,0.3785568,0.14577484,0.21654534,0.012265609,0.1336863,0.09199206,1511,4303.296199798584,4781.274630228679,5079.916523993015,5321.660657922426,4542.285415013632,5200.788590957721
9,22,0.1813129,0.48749208,0.70695364,-0.11012367,-0.0503989,0.6832164,0.31640872,0.95314777,0.1813129,0.48749208,0.70695364,-0.11012367,0.3614407,0.25938097,0.18622711,0.4585862,0.4585862,0.18622711,0.2452814,0.010966812,0.21212122,0.08225108,462,4303.296199798584,4781.274630228679,5321.660657922426,5563.404791851838,4542.285415013632,5442.532724887133
10,0,0.22118051,-0.023488121,-0.049057078,-0.058886208,-0.073813625,0.11868818,0.022437273,0.7151055,0.22118051,-0.023488121,-0.049057078,-0.058886208,-0.04381047,0.03774574,0.046268728,0.049545098,0.049545098,0.046268728,0.148886,0.06597041,0.13315926,0.34986946,766,4781.274630228679,5259.253060658773,3.2897114753723145,245.03384540478388,5020.263845443726,124.1617784400781
10,1,0.33893362,0.70460224,-0.2836902,0.058946434,0.10813199,0.30126408,0.20469803,0.6704341,0.33893362,0.70460224,-0.2836902,0.058946434,0.15995283,0.03806328,0.3674941,0.25328192,0.25328192,0.3674941,0.240616,0.029473685,0.41403508,0.17777778,855,4781.274630228679,5259.253060658773,245.03384540478388,486.77797933419544,5020.263845443726,365.90591236948967
10,2,0.11129879,-0.018881958,0.107926816,-0.23756978,-0.07563909,0.05702603,-0.00930653,0.692961,0.11129879,-0.018881958,0.107926816,-0.23756978,-0.049508307,-0.006114722,-0.048384313,0.066781215,0.066781215,-0.048384313,0.2565015,0.01981982,0.45945945,0.13288288,444,4781.274630228679,5259.253060658773,486.77797933419544,728.522113263607,5020.263845443726,607.6500462989012
10,3,-0.02551331,-0.5224891,-0.11104107,-0.38179109,-0.35110816,-0.16930911,-0.26020864,0.6891408,-0.02551331,-0.5224891,-0.11104107,-0.38179109,-0.33844042,-0.17278183,-0.3099312,-0.21968116,-0.21968116,-0.3099312,0.1588019,0.06915777,0.12900355,0.42259786,1124,4781.274630228679,5259.253060658773,728.522113263607,970.2662471930186,5020.263845443726,849.3941802283127
10,4,-0.1275806,-0.64533985,0.054670196,-0.47866836,-0.3940516,-0.2044077,-0.29922965,0.6587367,-0.1275806,-0.64533985,0.054670196,-0.47866836,-0.356446,-0.1838596,-0.41719624,-0.23941673,-0.23941673,-0.41719624,0.20898148,0.03181818,0.20833333,0.21085858,792,4781.274630228679,5259.253060658773,970.2662471930186,1212.01038112243,5020.263845443726,1091.1383141577244
10,5,-0.062919624,-0.5686545,-0.0635121,-0.41175213,-0.40504882,-0.14837031,-0.27670956,0.6778382,-0.062919624,-0.5686545,-0.0635121,-0.41175213,-0.3479729,-0.1793946,-0.3477754,-0.23169538,-0.23169538,-0.3477754,0.18429211,0.040536515,0.14530551,0.24739195,1342,4781.274630228679,5259.253060658773,1212.01038112243,1453.7545150518417,5020.263845443726,1332.8824480871358
10,6,-0.08527524,-0.6126155,-0.08634634,-0.5012901,-0.43877012,-0.20399344,-0.3213818,0.6819741,-0.08527524,-0.6126155,-0.08634634,-0.5012901,-0.400084,-0.22430389,-0.39972696,-0.26141235,-0.26141235,-0.39972696,0.18043147,0.031886347,0.14680347,0.19889502,1267,4781.274630228679,5259.253060658773,1453.7545150518417,1695.4986489812532,5020.263845443726,1574.6265820165474
10,7,-0.046217997,-0.35086685,0.12962382,-0.45158803,-0.26677364,-0.09275088,-0.17976226,0.6755526,-0.046217997,-0.35086685,0.12962382,-0.45158803,-0.224277,-0.122727394,-0.28289095,-0.08915366,-0.08915366,-0.28289095,0.24643199,0.034072146,0.36505866,0.22816166,767,4781.274630228679,5259.253060658773,1695.4986489812532,1937.2427829106648,5020.263845443726,1816.370715945959
10,8,-0.11712687,-0.47052345,0.03559939,-0.5682365,-0.40357888,-0.15656483,-0.28007185,0.7156844,-0.11712687,-0.47052345,0.03559939,-0.5682365,-0.33438686,-0.21658799,-0.3852956,-0.18401697,-0.18401697,-0.3852956,0.21461838,0.039672274,0.23544632,0.24708927,773,4781.274630228679,5259.253060658773,1937.2427829106648,2178.9869168400764,5020.263845443726,2058.1148498753705
10,9,-0.1045817,-0.526742,-0.05829397,-0.70729685,-0.47967464,-0.21878257,-0.34922862,0.7545511,-0.1045817,-0.526742,-0.05829397,-0.70729685,-0.43077758,-0.2900575,-0.4462068,-0.22987254,-0.22987254,-0.4462068,0.20244642,0.024884405,0.1891551,0.17528373,793,4781.274630228679,5259.253060658773,2178.9869168400764,2420.731050769488,5020.263845443726,2299.858983804782
10,10,-0.06396744,-0.31347045,-0.0052619637,-0.50116026,-0.37946752,-0.062462553,-0.22096503,0.72998214,-0.06396744,-0.31347045,-0.0052619637,-0.50116026,-0.27329755,-0.1901299,-0.29286605,-0.12756662,-0.12756662,-0.29286605,0.2085886,0.03269937,0.23023023,0.22722723,999,4781.274630228679,5259.253060658773,2420.731050769488,2662.4751846988993,5020.263845443726,2541.603117734194
10,11,-0.03597,-0.14524177,0.1291129,-0.4021418,-0.31038973,0.08326939,-0.11356016,0.77467835,-0.03597,-0.14524177,0.1291129,-0.4021418,-0.13942355,-0.102999635,-0.19445118,-0.017366286,-0.017366286,-0.19445118,0.21946852,0.024540683,0.23425196,0.1742126,1016,4781.274630228679,5259.253060658773,2662.4751846988993,2904.219318628311,5020.263845443726,2783.347251663605
10,12,-0.062836185,-0.37014312,0.26850948,-0.34433502,-0.29991737,0.04551496,-0.12720121,0.75467473,-0.062836185,-0.37014312,0.26850948,-0.34433502,-0.14865622,-0.046220582,-0.25910476,-0.054823283,-0.054823283,-0.25910476,0.21613139,0.011192215,0.17153284,0.07572993,1096,4781.274630228679,5259.253060658773,2904.219318628311,3145.9634525577226,5020.263845443726,3025.0913855930166
10,13,-0.056480583,-0.21508071,0.3518964,-0.22442402,-0.24776846,0.17572403,-0.036022224,0.77197856,-0.056480583,-0.21508071,0.3518964,-0.22442402,-0.02920277,0.023663938,-0.16532843,0.026778376,0.026778376,-0.16532843,0.20327948,0.020706166,0.120287254,0.13824058,1114,4781.274630228679,5259.253060658773,3145.9634525577226,3387.707586487134,5020.263845443726,3266.8355195224285
10,14,0.005548451,-0.27759755,0.50048625,-0.116393484,-0.2699185,0.32594037,0.028010922,0.8530834,0.005548451,-0.27759755,0.50048625,-0.116393484,0.03549841,0.12988041,-0.12948085,0.07614572,0.07614572,-0.12948085,0.19328822,0.025402967,0.08317215,0.16537717,1034,4781.274630228679,5259.253060658773,3387.707586487134,3629.451720416546,5020.263845443726,3508.57965345184
10,15,0.005301116,-0.23149356,0.3754224,-0.18159895,-0.30790377,0.2917193,-0.008092245,0.8800103,0.005301116,-0.23149356,0.3754224,-0.18159895,-0.012556699,0.06637485,-0.13593046,0.049743317,0.049743317,-0.13593046,0.17818023,0.026130069,0.045494314,0.17410323,1143,4781.274630228679,5259.253060658773,3629.451720416546,3871.1958543459573,5020.263845443726,3750.3237873812513
10,16,-0.018499905,-0.21676786,0.5266536,-0.066008836,-0.24131514,0.35400364,0.05634425,0.86293006,-0.018499905,-0.21676786,0.5266536,-0.066008836,0.0812923,0.14738162,-0.10042554,0.09712861,0.09712861,-0.10042554,0.19354962,0.039253853,0.07137064,0.23195459,1233,4781.274630228679,5259.253060658773,3871.1958543459573,4112.939988275369,5020.263845443726,3992.067921310663
10,17,-0.025072364,-0.15755925,0.54606247,0.020270668,-0.1995509,0.39140165,0.095925376,0.83591944,-0.025072364,-0.15755925,0.54606247,0.020270668,0.13625796,0.18042025,-0.054120317,0.12114362,0.12114362,-0.054120317,0.20677498,0.044949908,0.122664504,0.2761982,1231,4781.274630228679,5259.253060658773,4112.939988275369,4354.684122204781,5020.263845443726,4233.812055240074
10,18,-0.029110758,-0.16345918,0.41202062,-0.11717677,-0.27213687,0.32327384,0.025568483,0.86086154,-0.029110758,-0.16345918,0.41202062,-0.11717677,0.0437949,0.08857771,-0.10324891,0.07315023,0.07315023,-0.10324891,0.20199472,0.03026455,0.08492064,0.21190476,1260,4781.274630228679,5259.253060658773,4354.684122204781,4596.4282561341915,5020.263845443726,4475.556189169486
10,19,-0.02039545,-0.13501914,0.39091697,-0.12784599,-0.3035764,0.35740465,0.026914103,0.8919261,-0.02039545,-0.13501914,0.39091697,-0.12784599,0.042683955,0.08089185,-0.09442018,0.0785008,0.0785008,-0.09442018,0.2012755,0.031389285,0.09388336,0.21906117,1406,4781.274630228679,5259.253060658773,4596.4282561341915,4838.172390063603,5020.263845443726,4717.300323098898
10,20,-0.033504218,-0.28380877,0.4680248,-0.029405452,-0.31286758,0.37352073,0.030326596,0.9052915,-0.033504218,-0.28380877,0.4680248,-0.029405452,0.051603533,0.13503838,-0.1155728,0.050237276,0.050237276,-0.1155728,0.19874637,0.035665695,0.06559767,0.24854228,1372,4781.274630228679,5259.253060658773,4838.172390063603,5079.916523993015,5020.263845443726,4959.044457028309
10,21,0.012344812,-0.10165689,0.4088187,-0.19037259,-0.2686606,0.3332276,0.032283504,0.8906072,0.012344812,-0.10165689,0.4088187,-0.19037259,0.038929734,0.0769303,-0.09322822,0.1065022,0.1065022,-0.09322822,0.22243442,0.013508261,0.16180758,0.093294464,1372,4781.274630228679,5259.253060658773,5079.916523993015,5321.660657922426,5020.263845443726,5200.788590957721
10,22,0.12372526,0.07369294,0.46438596,-0.19804649,-0.20668185,0.43856066,0.115939416,0.93396246,0.12372526,0.07369294,0.46438596,-0.19804649,0.11334414,0.13002159,-0.00020942997,0.2206014,0.2206014,-0.00020942997,0.23284592,0.010377359,0.20990565,0.070754714,424,4781.274630228679,5259.253060658773,5321.660657922426,5563.404791851838,5020.263845443726,5442.532724887133
11,0,0.1061475,0.20856656,-0.43272093,0.16785719,-0.034447577,0.05937273,0.012462574,0.71167374,0.1061475,0.20856656,-0.43272093,0.16785719,-0.01876573,-0.052905418,0.16085708,-0.03933563,-0.03933563,0.16085708,0.17352657,0.09202899,0.26992753,0.4365942,552,5259.253060658773,5737.231491088867,3.2897114753723145,245.03384540478388,5498.24227587382,124.1617784400781
11,1,0.34691292,0.6186207,-0.43109012,-0.046597388,0.021919893,0.22200318,0.121961534,0.6950746,0.34691292,0.6186207,-0.43109012,-0.046597388,0.046977736,-0.043591525,0.30631208,0.17814785,0.17814785,0.30631208,0.24764012,0.011651918,0.3938053,0.086283185,904,5259.253060658773,5737.231491088867,245.03384540478388,486.77797933419544,5498.24227587382,365.90591236948967
11,2,0.31365836,0.8333366,-0.31374243,-0.050182175,0.13366038,0.25787485,0.19576761,0.64935315,0.31365836,0.8333366,-0.31374243,-0.050182175,0.1564707,-0.01675541,0.36560425,0.27775085,0.27775085,0.36560425,0.31242177,0.020857474,0.59327924,0.1216686,863,5259.253060658773,5737.231491088867,486.77797933419544,728.522113263607,5498.24227587382,607.6500462989012
11,3,-0.0048559923,-0.2519061,-0.07526539,-0.27166346,-0.23781994,-0.064025536,-0.15092273,0.69390374,-0.0048559923,-0.2519061,-0.07526539,-0.27166346,-0.19961166,-0.11726162,-0.17614186,-0.11067583,-0.11067583,-0.17614186,0.19754653,0.06676722,0.20060332,0.37104073,663,5259.253060658773,5737.231491088867,728.522113263607,970.2662471930186,5498.24227587382,849.3941802283127
11,4,-0.10655497,-0.42482552,0.1792124,-0.38085786,-0.28382972,-0.08268324,-0.18325648,0.6631968,-0.10655497,-0.42482552,0.1792124,-0.38085786,-0.20882364,-0.10273347,-0.30407944,-0.11738936,-0.11738936,-0.30407944,0.22127035,0.032573294,0.3257329,0.22801302,614,5259.253060658773,5737.231491088867,970.2662471930186,1212.01038112243,5498.24227587382,1091.1383141577244
11,5,-0.11142226,-0.5621225,0.2707541,-0.49579555,-0.3463015,-0.102991626,-0.22464655,0.6712726,-0.11142226,-0.5621225,0.2707541,-0.49579555,-0.262388,-0.11215458,-0.3897801,-0.13426356,-0.13426356,-0.3897801,0.22965348,0.025907593,0.3910891,0.18688118,808,5259.253060658773,5737.231491088867,1212.01038112243,1453.7545150518417,5498.24227587382,1332.8824480871358
11,6,0.04559561,-0.15791047,-0.008584691,-0.38488406,-0.18242627,-0.07046554,-0.1264459,0.68648076,0.04559561,-0.15791047,-0.008584691,-0.38488406,-0.18379308,-0.11595772,-0.16573298,-0.040299848,-0.040299848,-0.16573298,0.25701645,0.03640961,0.40581542,0.21618205,791,5259.253060658773,5737.231491088867,1453.7545150518417,1695.4986489812532,5498.24227587382,1574.6265820165474
11,7,0.09215491,0.0068343584,0.020098308,-0.40204808,-0.148955,0.0074747615,-0.070740126,0.6618487,0.09215491,0.0068343584,0.020098308,-0.40204808,-0.12503847,-0.09659829,-0.101019606,0.039695855,0.039695855,-0.101019606,0.23848806,0.01880141,0.3748531,0.12690952,851,5259.253060658773,5737.231491088867,1695.4986489812532,1937.2427829106648,5498.24227587382,1816.370715945959
11,8,-0.120872475,-0.46267205,-0.037935726,-0.38129565,-0.34523103,-0.1561569,-0.25069398,0.6006628,-0.120872475,-0.46267205,-0.037935726,-0.38129565,-0.2939678,-0.18003462,-0.3216134,-0.20716009,-0.20716009,-0.3216134,0.12759613,0.024205953,0.06118355,0.16850552,997,5259.253060658773,5737.231491088867,1937.2427829106648,2178.9869168400764,5498.24227587382,2058.1148498753705
11,9,-0.082436964,-0.59581125,0.10698733,-0.49722937,-0.35977072,-0.17447439,-0.26712257,0.6728225,-0.082436964,-0.59581125,0.10698733,-0.49722937,-0.32868445,-0.15755968,-0.39182585,-0.19042031,-0.19042031,-0.39182585,0.18477398,0.031263202,0.081115335,0.21166033,789,5259.253060658773,5737.231491088867,2178.9869168400764,2420.731050769488,5498.24227587382,2299.858983804782
11,10,-0.04996601,-0.54076195,0.23587464,-0.3644666,-0.31772327,-0.04193667,-0.17982998,0.67885536,-0.04996601,-0.54076195,0.23587464,-0.3644666,-0.22311798,-0.05951933,-0.3183982,-0.11828444,-0.11828444,-0.3183982,0.19766235,0.037748918,0.17532468,0.26623377,770,5259.253060658773,5737.231491088867,2420.731050769488,2662.4751846988993,5498.24227587382,2541.603117734194
11,11,-0.059864026,-0.39209083,0.050775714,-0.33755934,-0.32063374,-0.048735473,-0.18468462,0.6858737,-0.059864026,-0.39209083,0.050775714,-0.33755934,-0.22629148,-0.11554922,-0.2631714,-0.13372637,-0.13372637,-0.2631714,0.18422848,0.058994036,0.1713555,0.3567775,782,5259.253060658773,5737.231491088867,2662.4751846988993,2904.219318628311,5498.24227587382,2783.347251663605
11,12,-0.04873977,-0.3588546,0.09603303,-0.3208559,-0.32080713,0.0045985356,-0.1581043,0.7061474,-0.04873977,-0.3588546,0.09603303,-0.3208559,-0.19455914,-0.091187544,-0.24281675,-0.10385377,-0.10385377,-0.24281675,0.19591874,0.062083878,0.2075227,0.36446175,771,5259.253060658773,5737.231491088867,2904.219318628311,3145.9634525577226,5498.24227587382,3025.0913855930166
